!!!!SEGMENT: pl-cz--iii-349--004_koperski-maksymilian--msza-b-et-incarnatus.krn
!!!cenid: 18xx:890
!!!COM: Koperski, Maksymilian
!!!COM-rismid: pe30060120
!!!CDT: 1812-1886
!!!CNT:
!!!OPR: Msza B
!!!OTL: Et incarnatus
!!!OMV: 004
!!!PDT: 1834
!!!AGN: Sacred; Mass
!!!SMS-siglum: PL-CZ
!!!SMS-shelfmark: III-349
!!!SMS-shelfwork: 001-004 M
!!!SMS-variant:
!!!SMS-altvar:
!!!NIFC-rismid: 300000599
!!!URL-scan: http://repozytorium.nifc.pl/skany/pl-cz-nut--iii-349
!!!ONB-nifc: UWAGA: części Mszy: Kyrie, Gloria, Credo, Et incarnatus, Et resurrexit, Sanctus, Pleni, Benedictus, Agnus Dei
!!!AIN: 1 alto 1 bass 2 clars 2 clrno 1 fagot 1 flt 1 organ 1 soprn 1 tenor 1 timpa 1 viola 2 violn
!!!key: B-
**kern	**fba	**dynam	**kern	**dynam	**kern	**dynam	**kern	**dynam	**kern	**text	**dynam	**kern	**text	**kern	**text	**dynam	**kern	**text	**dynam	**kern	**kern	**kern	**kern	**dynam	**kern	**dynam	**kern	**dynam	**kern	**dynam
*	*	*	*group4	*	*group4	*	*group4	*	*group3	*	*	*group3	*	*group3	*	*	*group3	*	*	*	*group2	*group2	*group1	*	*group1	*	*group1	*	*group1	*
*part15	*part15	*part15	*part14	*part14	*part13	*part13	*part12	*part12	*part11	*part11	*part11	*part10	*part10	*part9	*part9	*part9	*part8	*part8	*part8	*part7	*part6	*part5	*part4	*part4	*part3	*part3	*part2	*part2	*part1	*part1
*staff15	*	*	*staff14	*	*staff13	*	*staff12	*	*staff11	*staff11	*	*staff10	*staff10	*staff9	*staff9	*	*staff8	*staff8	*	*staff7	*staff6	*staff5	*staff4	*	*staff3	*	*staff2	*	*staff1	*
*I"Organo.	*	*	*I"Alto Viola	*	*I"Violino 2do	*	*I"Violino. 1mo.	*	*I"Basſo.	*	*	*I"Tenore.	*	*I"Alto.	*	*	*I"Canto	*	*	*I"Tympano in B C.G.	*I"Clarino 2do in B	*I"Clarino 1.mo in B	*I"Fagotto. 1mo.	*	*I"Clarinetto 2do in B.	*	*I"Clarinetto.1mo in B.	*	*I"Flauto.	*
*I'org	*	*	*I'a-vla	*	*I'vl 2	*	*I'vl 1	*	*I'B	*	*	*I'T	*	*I'A	*	*	*I'S	*	*	*I'timp	*I'clno 2 in B	*I'clno 1	*I'fag	*	*I'cl 2 in B	*	*I'cl 1 in B	*	*I'fl	*
*Iorgan	*	*	*Iviola	*	*Ivioln	*	*Ivioln	*	*Ibass	*	*	*Itenor	*	*Ialto	*	*	*Isoprn	*	*	*Itimpa	*Iclrno	*Iclrno	*Ifagot	*	*Iclars	*	*Iclars	*	*Iflt	*
*ICklav	*	*	*ICstr	*	*ICstr	*	*ICstr	*	*ICvox	*	*	*ICvox	*	*ICvox	*	*	*ICvox	*	*	*ICidio	*ICbras	*ICbras	*ICww	*	*ICww	*	*ICww	*	*ICww	*
*IGcont	*	*	*	*	*	*	*	*	*IGcoro	*	*	*IGcoro	*	*IGcoro	*	*	*IGcoro	*	*	*	*	*	*	*	*	*	*	*	*	*
*clefF4	*	*	*clefC3	*	*clefG2	*	*clefG2	*	*clefF4	*	*	*clefC4	*	*clefC3	*	*	*clefC1	*	*	*clefF4	*clefG2	*clefG2	*clefF4	*	*clefG2	*	*clefG2	*	*clefG2	*
*	*	*	*	*	*	*	*	*	*	*	*	*	*	*	*	*	*	*	*	*ITrd1c2	*ITrd1c2	*ITrd1c2	*	*	*ITrd1c2	*	*ITrd1c2	*	*	*
*k[b-e-]	*	*	*k[b-e-]	*	*k[b-e-]	*	*k[b-e-]	*	*k[b-e-]	*	*	*k[b-e-]	*	*k[b-e-]	*	*	*k[b-e-]	*	*	*k[b-e-]	*k[b-e-]	*k[b-e-]	*k[b-e-]	*	*k[b-e-]	*	*k[b-e-]	*	*k[b-e-]	*
*B-:	*	*	*B-:	*	*B-:	*	*B-:	*	*B-:	*	*	*B-:	*	*B-:	*	*	*B-:	*	*	*B-:	*B-:	*B-:	*B-:	*	*B-:	*	*B-:	*	*B-:	*
*M2/4	*	*	*M2/4	*	*M2/4	*	*M2/4	*	*M2/4	*	*	*M2/4	*	*M2/4	*	*	*M2/4	*	*	*M2/4	*M2/4	*M2/4	*M2/4	*	*M2/4	*	*M2/4	*	*M2/4	*
=1	=1	=1	=1	=1	=1	=1	=1	=1	=1	=1	=1	=1	=1	=1	=1	=1	=1	=1	=1	=1	=1	=1	=1	=1	=1	=1	=1	=1	=1	=1
*all\right	*	*	*all\right	*	*all\right	*	*all\right	*	*all\right	*	*	*all\right	*	*all\right	*	*	*all\right	*	*	*	*	*	*all\right	*	*all\right	*	*all\right	*	*all\right	*
*	*	*	*	*	*	*	*	*	*	*	*	*2\right	*	*	*	*	*	*	*	*	*	*	*	*	*	*	*	*	*	*
!	!	!	!	!	!LO:TX:a:i:t=Dolce	!	!	!	!LO:TX:a:t=25	!	!	!	!	!LO:TX:a:t=25	!	!	!LO:TX:a:t=25	!	!	!	!	!	!	!	!LO:TX:a:t=12	!	!LO:TX:a:t=4	!	!LO:TX:a:t=25	!
!LO:TX:a:rj:t=Adagio	!	!LO:DY:b	!LO:TX:a:rj:t=Adagio	!LO:DY:b	!LO:TX:a:rj:t=Adagio	!LO:DY:b:rj:t=p.	!LO:TX:a:t=Adagio	!LO:DY:b:rj	!LO:TX:a:t=Adagio	!	!	!LO:TX:a:t=Adagio	!	!	!	!	!LO:TX:a:rj:t=Adagio	!	!	!LO:TX:a:i:t=Et incarnatus Tacet	!LO:TX:a:i:t=Et incarnatus Tacet	!LO:TX:a:i:t=Et incarnatus Tacet	!LO:TX:a:rj:t=Adagio	!LO:DY:rj	!LO:TX:a:rj:t=Adagio	!	!LO:TX:a:rj:t=Adagio	!	!LO:TX:a:rj:t=Adagio	!
8BB-/	.	pp	8b-\	p	(8d/	p	16r	p	2r	.	.	2B-\	Et	2r	.	.	2r	.	.	2ryy	2ryy	2ryy	8BB-/	p	0r	.	0r	.	2r	.
.	.	.	.	.	.	.	16B-'/LL	.	.	.	.	.	.	.	.	.	.	.	.	.	.	.	.	.	.	.	.	.	.	.
8r	.	.	8r	.	16B-/)	.	(16d/	.	.	.	.	.	.	.	.	.	.	.	.	.	.	.	8r	.	.	.	.	.	.	.
.	.	.	.	.	16r	.	16f/JJ)	.	.	.	.	.	.	.	.	.	.	.	.	.	.	.	.	.	.	.	.	.	.	.
8B-\	.	.	8r	.	(8d/	.	16r	.	.	.	.	.	.	.	.	.	.	.	.	.	.	.	8B-\	.	.	.	.	.	.	.
.	.	.	.	.	.	.	16B-'/LL	.	.	.	.	.	.	.	.	.	.	.	.	.	.	.	.	.	.	.	.	.	.	.
8r	.	.	8B-/	.	16B-/)	.	(16d/	.	.	.	.	.	.	.	.	.	.	.	.	.	.	.	8r	.	.	.	.	.	.	.
.	.	.	.	.	16r	.	16f/JJ)	.	.	.	.	.	.	.	.	.	.	.	.	.	.	.	.	.	.	.	.	.	.	.
=2	=2	=2	=2	=2	=2	=2	=2	=2	=2	=2	=2	=2	=2	=2	=2	=2	=2	=2	=2	=2	=2	=2	=2	=2	=2	=2	=2	=2	=2	=2
8F\	.	.	8f\	.	8e-/	.	16r	.	2r	.	.	4.f\	in-	2r	.	.	2r	.	.	2ryy	2ryy	2ryy	8F\	.	.	.	.	.	2r	.
.	.	.	.	.	.	.	16c'/LL	.	.	.	.	.	.	.	.	.	.	.	.	.	.	.	.	.	.	.	.	.	.	.
8r	.	.	8r	.	16r	.	(16e-/	.	.	.	.	.	.	.	.	.	.	.	.	.	.	.	8r	.	.	.	.	.	.	.
.	.	.	.	.	16c/	.	16f/JJ)	.	.	.	.	.	.	.	.	.	.	.	.	.	.	.	.	.	.	.	.	.	.	.
8F\	.	.	8f\	.	8e-/	.	16r	.	.	.	.	.	.	.	.	.	.	.	.	.	.	.	8f\	.	.	.	.	.	.	.
.	.	.	.	.	.	.	16c'/LL	.	.	.	.	.	.	.	.	.	.	.	.	.	.	.	.	.	.	.	.	.	.	.
*	*	*	*	*	*	*	*	*	*	*	*	*rscale:2	*	*	*	*	*	*	*	*	*	*	*	*	*	*	*	*	*	*
8r	.	.	8r	.	16c/	.	(16e-/	.	.	.	.	(32en\LLL	-car-	.	.	.	.	.	.	.	.	.	8r	.	.	.	.	.	.	.
.	.	.	.	.	.	.	.	.	.	.	.	32f\)	.	.	.	.	.	.	.	.	.	.	.	.	.	.	.	.	.	.
.	.	.	.	.	16r	.	16f/JJ)	.	.	.	.	(32g\	.	.	.	.	.	.	.	.	.	.	.	.	.	.	.	.	.	.
.	.	.	.	.	.	.	.	.	.	.	.	32f\JJJ)	.	.	.	.	.	.	.	.	.	.	.	.	.	.	.	.	.	.
*	*	*	*	*	*	*	*	*	*	*	*	*rscale:1	*	*	*	*	*	*	*	*	*	*	*	*	*	*	*	*	*	*
=3	=3	=3	=3	=3	=3	=3	=3	=3	=3	=3	=3	=3	=3	=3	=3	=3	=3	=3	=3	=3	=3	=3	=3	=3	=3	=3	=3	=3	=3	=3
8BB-/	.	.	8b-\	.	8d/	.	16r	.	2r	.	.	8d-X\	-na-	2r	.	.	2r	.	.	2ryy	2ryy	2ryy	(8B-\L	.	.	.	.	.	2r	.
.	.	.	.	.	.	.	16B-'/LL	.	.	.	.	.	.	.	.	.	.	.	.	.	.	.	.	.	.	.	.	.	.	.
8r	.	.	8r	.	16B-/	.	(16d/	.	.	.	.	16dn\	-tus	.	.	.	.	.	.	.	.	.	8f\	.	.	.	.	.	.	.
.	.	.	.	.	16r	.	16f/JJ)	.	.	.	.	16d\	est	.	.	.	.	.	.	.	.	.	.	.	.	.	.	.	.	.
8B-\	.	.	8B-/	.	8d/	.	16r	.	.	.	.	8r	.	.	.	.	.	.	.	.	.	.	8d\	.	.	.	.	.	.	.
.	.	.	.	.	.	.	16B-/LL	.	.	.	.	.	.	.	.	.	.	.	.	.	.	.	.	.	.	.	.	.	.	.
8r	.	.	8r	.	16B-/	.	16d/	.	.	.	.	8B-\	de	.	.	.	.	.	.	.	.	.	8B-\J)	.	.	.	.	.	.	.
!	!	!	!	!	!LO:N:vis=8	!	!	!	!	!	!	!	!	!	!	!	!	!	!	!	!	!	!	!	!	!	!	!	!	!
.	.	.	.	.	16r	.	16f/JJ	.	.	.	.	.	.	.	.	.	.	.	.	.	.	.	.	.	.	.	.	.	.	.
!	!	!	!	!	!LO:LB:g=original	!	!	!	!	!	!	!	!	!	!	!	!	!	!	!	!	!	!	!	!	!	!	!	!	!
=4	=4	=4	=4	=4	=4	=4	=4	=4	=4	=4	=4	=4	=4	=4	=4	=4	=4	=4	=4	=4	=4	=4	=4	=4	=4	=4	=4	=4	=4	=4
8F\L	.	.	8f\L	.	(16c/LL	.	(16e-/LL	.	2r	.	.	8c\L	spi-	2r	.	.	2r	.	.	2ryy	2ryy	2ryy	16F\LL	.	.	.	.	.	2r	.
.	.	.	.	.	16e- 16c/)	.	16f/)	.	.	.	.	.	.	.	.	.	.	.	.	.	.	.	16f\	.	.	.	.	.	.	.
8F\	.	.	8f\	.	16e- 16c'/	.	16f'/	.	.	.	.	8e-\J	.	.	.	.	.	.	.	.	.	.	16f\	.	.	.	.	.	.	.
.	.	.	.	.	16e-JJ 16c'/	.	16f'/JJ	.	.	.	.	.	.	.	.	.	.	.	.	.	.	.	16f\JJ	.	.	.	.	.	.	.
*	*	*	*	*	*	*	*	*	*	*	*	*rscale:2	*	*	*	*	*	*	*	*	*	*	*	*	*	*	*	*	*	*
8F\J	.	.	8f\J	.	8e- 8c/	.	8f'/	.	.	.	.	32e-\LLL	-ri-	.	.	.	.	.	.	.	.	.	8f\	.	.	.	.	.	.	.
.	.	.	.	.	.	.	.	.	.	.	.	32d\	.	.	.	.	.	.	.	.	.	.	.	.	.	.	.	.	.	.
.	.	.	.	.	.	.	.	.	.	.	.	32c\	.	.	.	.	.	.	.	.	.	.	.	.	.	.	.	.	.	.
.	.	.	.	.	.	.	.	.	.	.	.	32B-\JJJ	.	.	.	.	.	.	.	.	.	.	.	.	.	.	.	.	.	.
!	!	!	!	!	!	!	!	!	!	!	!	!LO:SIC:v:l:s=-tu	!	!	!	!	!	!	!	!	!	!	!	!	!	!	!	!	!	!
8r	.	.	8r	.	8r	.	8r	.	.	.	.	32A/LLL	-lu	.	.	.	.	.	.	.	.	.	8r	.	.	.	.	.	.	.
.	.	.	.	.	.	.	.	.	.	.	.	32G/	.	.	.	.	.	.	.	.	.	.	.	.	.	.	.	.	.	.
.	.	.	.	.	.	.	.	.	.	.	.	32F/	.	.	.	.	.	.	.	.	.	.	.	.	.	.	.	.	.	.
.	.	.	.	.	.	.	.	.	.	.	.	32E-/JJJ	.	.	.	.	.	.	.	.	.	.	.	.	.	.	.	.	.	.
*	*	*	*	*	*	*	*	*	*	*	*	*rscale:1	*	*	*	*	*	*	*	*	*	*	*	*	*	*	*	*	*	*
!	!	!	!	!	!	!	!LO:LB:g=original	!	!	!	!	!LO:LB:g=original	!	!	!	!	!	!	!	!	!	!	!	!	!	!	!	!	!	!
=5	=5	=5	=5	=5	=5	=5	=5	=5	=5	=5	=5	=5	=5	=5	=5	=5	=5	=5	=5	=5	=5	=5	=5	=5	=5	=5	=5	=5	=5	=5
!LO:TX:t=P:problem=mixed beam	!	!	!LO:TX:t=P:problem=mixed beam	!	!	!	!	!	!	!	!	!	!	!	!	!	!	!	!	!	!	!	!LO:TX:t=P:problem=mixed beam	!	!	!	!LO:TX:a:i:rj:t=Dolce	!	!	!
8BB-/L	.	.	8B-/L	.	16B-/LL	.	(16d/LL	.	2r	.	.	8D/	san-	2r	.	.	2r	.	.	2ryy	2ryy	2ryy	(16BB-/LL	.	0r	.	8r	.	2r	.
.	.	.	.	.	16d/	.	16f/)	.	.	.	.	.	.	.	.	.	.	.	.	.	.	.	16B-\)	.	.	.	.	p	.	.
!	!	!	!	!	!	!	!	!	!	!	!	!	!	!	!	!	!	!	!	!	!	!	!	!	!	!	!LO:TX:t=P:global:problem=mordent przekreślony	!	!	!
8B-\	.	.	8b-\	.	16d 16B-/	.	16f'/	.	.	.	.	8D/	-cto	.	.	.	.	.	.	.	.	.	16B-'\	.	.	.	8ffM\	.	.	.
.	.	.	.	.	16dJJ 16B-/	.	16f'/JJ	.	.	.	.	.	.	.	.	.	.	.	.	.	.	.	16B-'\JJ	.	.	.	.	.	.	.
8BB-/J	.	.	8B-/J	.	8d 8B-/	.	8f/	.	.	.	.	4r	.	.	.	.	.	.	.	.	.	.	8B-\	.	.	.	(32bb-\LLL	.	.	.
.	.	.	.	.	.	.	.	.	.	.	.	.	.	.	.	.	.	.	.	.	.	.	.	.	.	.	32aa\	.	.	.
.	.	.	.	.	.	.	.	.	.	.	.	.	.	.	.	.	.	.	.	.	.	.	.	.	.	.	32gg\	.	.	.
.	.	.	.	.	.	.	.	.	.	.	.	.	.	.	.	.	.	.	.	.	.	.	.	.	.	.	32ff\JJJ	.	.	.
8r	.	.	8r	.	8r	.	8r	.	.	.	.	.	.	.	.	.	.	.	.	.	.	.	8r	.	.	.	32ee-\LLL	.	.	.
.	.	.	.	.	.	.	.	.	.	.	.	.	.	.	.	.	.	.	.	.	.	.	.	.	.	.	32dd\	.	.	.
.	.	.	.	.	.	.	.	.	.	.	.	.	.	.	.	.	.	.	.	.	.	.	.	.	.	.	32cc\	.	.	.
.	.	.	.	.	.	.	.	.	.	.	.	.	.	.	.	.	.	.	.	.	.	.	.	.	.	.	32b-\JJJ)	.	.	.
!LO:LB:g=original	!	!	!	!	!	!	!	!	!	!	!	!	!	!	!	!	!	!	!	!	!	!	!	!	!	!	!	!	!	!
=6	=6	=6	=6	=6	=6	=6	=6	=6	=6	=6	=6	=6	=6	=6	=6	=6	=6	=6	=6	=6	=6	=6	=6	=6	=6	=6	=6	=6	=6	=6
.	.	.	.	.	.	.	.	.	.	.	.	8qd/	.	.	.	.	.	.	.	.	.	.	.	.	.	.	8qdd/	.	.	.
8r	.	.	8r	.	8r	.	8r	.	2r	.	.	4c\	ex	2r	.	.	2r	.	.	2ryy	2ryy	2ryy	8r	.	.	.	4cc\	.	2r	.
!	!	!	!	!	!	!LO:HP:a	!	!	!	!	!	!	!	!	!	!	!	!	!	!	!	!	!	!	!	!	!	!	!	!
!	!	!	!	!	!	!LO:DY:a	!	!LO:DY:b	!	!	!	!	!	!	!	!	!	!	!	!	!	!	!LO:TUP:a:problem=klamra łukowa	!	!	!	!	!	!	!
8E-\L	6_ 3_	.	8e-\L	.	16.e-LL 16.c/	rf >	16.g/LL	rf	.	.	.	.	.	.	.	.	.	.	.	.	.	.	24G\LL	.	.	.	.	.	.	.
.	.	.	.	.	.	.	.	.	.	.	.	.	.	.	.	.	.	.	.	.	.	.	24c\	.	.	.	.	.	.	.
.	.	.	.	.	.	.	.	.	.	.	.	.	.	.	.	.	.	.	.	.	.	.	24e-\JJ	.	.	.	.	.	.	.
.	.	.	.	.	32e-JJk 32c/	.	32g/JJk	.	.	.	.	.	.	.	.	.	.	.	.	.	.	.	.	.	.	.	.	.	.	.
8E-\J	X X	.	8e-\J	.	8e- 8c/	]	8g/	.	.	.	.	8r	.	.	.	.	.	.	.	.	.	.	8g 8G\	.	.	.	4r	.	.	.
8r	.	.	8r	.	8r	.	8r	.	.	.	.	(16g\LL	Ma-	.	.	.	.	.	.	.	.	.	8r	.	.	.	.	.	.	.
.	.	.	.	.	.	.	.	.	.	.	.	16e-\JJ)	.	.	.	.	.	.	.	.	.	.	.	.	.	.	.	.	.	.
=7	=7	=7	=7	=7	=7	=7	=7	=7	=7	=7	=7	=7	=7	=7	=7	=7	=7	=7	=7	=7	=7	=7	=7	=7	=7	=7	=7	=7	=7	=7
!	!	!	!LO:TX:t=P:problem=takt zapisany repetycją	!	!	!	!	!	!	!	!	!	!	!	!	!	!	!	!	!	!	!	!	!	!	!	!LO:TX:a:t=4	!	!	!
8r	.	.	8ryy	.	8r	.	8r	.	2r	.	.	16d\LL	-ri-	2r	.	.	2r	.	.	2ryy	2ryy	2ryy	8r	.	.	.	0r	.	2r	.
.	.	.	.	.	.	.	.	.	.	.	.	16c\JJ	.	.	.	.	.	.	.	.	.	.	.	.	.	.	.	.	.	.
!	!	!	!	!	!	!LO:HP:a	!	!LO:DY:b	!	!	!	!	!	!	!	!	!	!	!	!	!	!	!LO:TUP:a:problem=klamra łukowa	!	!	!	!	!	!	!
8E-\L	6_ 3_	.	8e-\Lyy	.	16.e-LL 16.c/	>	16.g/LL	rf	.	.	.	8c\	-a	.	.	.	.	.	.	.	.	.	24G\LL	.	.	.	.	.	.	.
.	.	.	.	.	.	.	.	.	.	.	.	.	.	.	.	.	.	.	.	.	.	.	24c\	.	.	.	.	.	.	.
.	.	.	.	.	.	.	.	.	.	.	.	.	.	.	.	.	.	.	.	.	.	.	24e-\JJ	.	.	.	.	.	.	.
.	.	.	.	.	32e-JJk 32c/	.	32g/JJk	.	.	.	.	.	.	.	.	.	.	.	.	.	.	.	.	.	.	.	.	.	.	.
8E-\J	X X	.	8e-\Jyy	.	8e- 8c/	]	8g/	.	.	.	.	8r	.	.	.	.	.	.	.	.	.	.	8g 8G\	.	.	.	.	.	.	.
8r	.	.	8ryy	.	8r	.	8r	.	.	.	.	(16g\LL	Ma-	.	.	.	.	.	.	.	.	.	8r	.	.	.	.	.	.	.
.	.	.	.	.	.	.	.	.	.	.	.	16e-\JJ)	.	.	.	.	.	.	.	.	.	.	.	.	.	.	.	.	.	.
!	!	!	!	!	!	!	!	!	!	!	!	!	!	!	!	!	!	!	!	!	!	!	!LO:LB:g=original	!	!	!	!	!	!	!
=8	=8	=8	=8	=8	=8	=8	=8	=8	=8	=8	=8	=8	=8	=8	=8	=8	=8	=8	=8	=8	=8	=8	=8	=8	=8	=8	=8	=8	=8	=8
4E-\	6 3	.	4e-\	.	4e- 4c/	.	4g/	.	2r	.	.	(32c\LLL	-ri-	2r	.	.	2r	.	.	2ryy	2ryy	2ryy	4r	.	.	.	.	.	2r	.
.	.	.	.	.	.	.	.	.	.	.	.	32Bn\	.	.	.	.	.	.	.	.	.	.	.	.	.	.	.	.	.	.
.	.	.	.	.	.	.	.	.	.	.	.	32c\	.	.	.	.	.	.	.	.	.	.	.	.	.	.	.	.	.	.
.	.	.	.	.	.	.	.	.	.	.	.	32d\JJJ)	.	.	.	.	.	.	.	.	.	.	.	.	.	.	.	.	.	.
.	.	.	.	.	.	.	.	.	.	.	.	(32e-\LLL	-a	.	.	.	.	.	.	.	.	.	.	.	.	.	.	.	.	.
.	.	.	.	.	.	.	.	.	.	.	.	32d\	.	.	.	.	.	.	.	.	.	.	.	.	.	.	.	.	.	.
.	.	.	.	.	.	.	.	.	.	.	.	32e-\	.	.	.	.	.	.	.	.	.	.	.	.	.	.	.	.	.	.
.	.	.	.	.	.	.	.	.	.	.	.	32f\JJJ)	.	.	.	.	.	.	.	.	.	.	.	.	.	.	.	.	.	.
4r	.	.	4r	.	4r	.	4r	.	.	.	.	(32g\LLL	Vir-	.	.	.	.	.	.	.	.	.	(16C\LL	.	.	.	.	.	.	.
.	.	.	.	.	.	.	.	.	.	.	.	32B\	.	.	.	.	.	.	.	.	.	.	.	.	.	.	.	.	.	.
.	.	.	.	.	.	.	.	.	.	.	.	32c\	.	.	.	.	.	.	.	.	.	.	16D\	.	.	.	.	.	.	.
.	.	.	.	.	.	.	.	.	.	.	.	32d\JJJ	.	.	.	.	.	.	.	.	.	.	.	.	.	.	.	.	.	.
!	!	!	!	!	!	!	!	!	!	!	!	!LO:TX:t=P:problem=mixed beam	!	!	!	!	!	!	!	!	!	!	!	!	!	!	!	!	!	!
.	.	.	.	.	.	.	.	.	.	.	.	32f\LLL	.	.	.	.	.	.	.	.	.	.	16E-X\	.	.	.	.	.	.	.
.	.	.	.	.	.	.	.	.	.	.	.	32e-\	.	.	.	.	.	.	.	.	.	.	.	.	.	.	.	.	.	.
.	.	.	.	.	.	.	.	.	.	.	.	32G/	.	.	.	.	.	.	.	.	.	.	16En\JJ)	.	.	.	.	.	.	.
.	.	.	.	.	.	.	.	.	.	.	.	32c/JJJ)	.	.	.	.	.	.	.	.	.	.	.	.	.	.	.	.	.	.
!	!	!	!	!	!	!	!	!	!	!	!	!LO:LB:g=original	!	!	!	!	!	!	!	!	!	!	!	!	!	!	!	!	!	!
=9	=9	=9	=9	=9	=9	=9	=9	=9	=9	=9	=9	=9	=9	=9	=9	=9	=9	=9	=9	=9	=9	=9	=9	=9	=9	=9	=9	=9	=9	=9
!	!	!	!	!	!	!	!	!	!	!	!	!LO:TX:t=P:global:problem=mordent przekreślony	!	!	!	!	!	!	!	!	!	!	!	!	!	!	!	!	!	!
8r	.	.	8r	.	8r	.	8r	.	2r	.	.	4B-M\	-gi-	2r	.	.	2r	.	.	2ryy	2ryy	2ryy	16r	.	0r	.	.	.	2r	.
.	.	.	.	.	.	.	.	.	.	.	.	.	.	.	.	.	.	.	.	.	.	.	16F'\LL	.	.	.	.	.	.	.
!LO:TX:t=P:problem=mixed beam	!	!	!LO:TX:t=P:problem=mixed beam	!	!	!	!	!	!	!	!	!	!	!	!	!	!	!	!	!	!	!	!	!	!	!	!	!	!	!
8F\L	.	.	8f\L	.	8B-/L	.	8d/L	.	.	.	.	.	.	.	.	.	.	.	.	.	.	.	(16A\	.	.	.	.	.	.	.
.	.	.	.	.	.	.	.	.	.	.	.	.	.	.	.	.	.	.	.	.	.	.	16c\JJ)	.	.	.	.	.	.	.
8FF/J	.	.	8F/J	.	8c/J	.	8e-/J	.	.	.	.	8A\	-ne	.	.	.	.	.	.	.	.	.	8f\	.	.	.	.	.	.	.
8r	.	.	8r	.	8r	.	8r	.	.	.	.	16r	.	.	.	.	.	.	.	.	.	.	8r	.	.	.	.	.	.	.
.	.	.	.	.	.	.	.	.	.	.	.	16F/	et	.	.	.	.	.	.	.	.	.	.	.	.	.	.	.	.	.
=10	=10	=10	=10	=10	=10	=10	=10	=10	=10	=10	=10	=10	=10	=10	=10	=10	=10	=10	=10	=10	=10	=10	=10	=10	=10	=10	=10	=10	=10	=10
*	*	*	*	*	*tremolo	*	*	*	*	*	*	*	*	*	*	*	*	*	*	*	*	*	*	*	*	*	*	*	*	*
!	!	!	!	!	!	!LO:DY:b:rj	!	!LO:DY:b	!	!	!	!	!	!	!	!	!	!	!	!	!	!	!	!	!	!	!	!	!	!
8F\	.	.	8f\	.	(16c/LL	p	(16e-/LL	pp	2r	.	.	4e-\	ho-	2r	.	.	2r	.	.	2ryy	2ryy	2ryy	8F\	.	.	.	.	.	2r	.
.	.	.	.	.	16e-/	.	16f/)	.	.	.	.	.	.	.	.	.	.	.	.	.	.	.	.	.	.	.	.	.	.	.
8r	.	.	8r	.	16c/	.	(16e-/	.	.	.	.	.	.	.	.	.	.	.	.	.	.	.	8r	.	.	.	.	.	.	.
.	.	.	.	.	16e-/	.	16f/JJ)	.	.	.	.	.	.	.	.	.	.	.	.	.	.	.	.	.	.	.	.	.	.	.
.	.	.	.	.	.	.	.	.	.	.	.	16qqf/LL	.	.	.	.	.	.	.	.	.	.	.	.	.	.	.	.	.	.
.	.	.	.	.	.	.	.	.	.	.	.	16qqe-/JJ	.	.	.	.	.	.	.	.	.	.	.	.	.	.	.	.	.	.
*	*	*	*	*	*	*	*rep	*	*	*	*	*	*	*	*	*	*	*	*	*	*	*	*	*	*	*	*	*	*	*
8F\	.	.	8f\	.	16c/	.	(16e-/LL	.	.	.	.	(16d\LL	-mo	.	.	.	.	.	.	.	.	.	8f\	.	.	.	.	.	.	.
.	.	.	.	.	16e-/	.	16f/)	.	.	.	.	16c\	.	.	.	.	.	.	.	.	.	.	.	.	.	.	.	.	.	.
8r	.	.	8r	.	16c/	.	(16e-/	.	.	.	.	16B-\	.	.	.	.	.	.	.	.	.	.	8r	.	.	.	.	.	.	.
.	.	.	.	.	16e-/JJ)	.	16f/JJ)	.	.	.	.	16A\JJ)	.	.	.	.	.	.	.	.	.	.	.	.	.	.	.	.	.	.
*	*	*	*	*	*	*	*Xrep	*	*	*	*	*	*	*	*	*	*	*	*	*	*	*	*	*	*	*	*	*	*	*
!	!	!	!LO:LB:g=original	!	!	!	!	!	!	!	!	!	!	!	!	!	!	!	!	!	!	!	!	!	!	!	!	!	!	!
=11	=11	=11	=11	=11	=11	=11	=11	=11	=11	=11	=11	=11	=11	=11	=11	=11	=11	=11	=11	=11	=11	=11	=11	=11	=11	=11	=11	=11	=11	=11
*	*	*	*	*	*	*	*tremolo	*	*	*	*	*	*	*	*	*	*	*	*	*	*	*	*	*	*	*	*	*	*	*
8B-\	.	.	8b-\	.	(16B-/LL	.	(16d/LL	.	2r	.	.	16.B-\	fac-	2r	.	.	2r	.	.	2ryy	2ryy	2ryy	8BB-/	.	.	.	4ffM\	.	2r	.
.	.	.	.	.	16d/	.	16f/	.	.	.	.	.	.	.	.	.	.	.	.	.	.	.	.	.	.	.	.	.	.	.
.	.	.	.	.	.	.	.	.	.	.	.	32F/	-tus	.	.	.	.	.	.	.	.	.	.	.	.	.	.	.	.	.
8r	.	.	8r	.	16B-/	.	16d/	.	.	.	.	8F/	est	.	.	.	.	.	.	.	.	.	8r	.	.	.	.	.	.	.
.	.	.	.	.	16d/	.	16f/	.	.	.	.	.	.	.	.	.	.	.	.	.	.	.	.	.	.	.	.	.	.	.
8BB-/	.	.	8B-/	.	16B-/	.	16d/	.	.	.	.	4r	.	.	.	.	.	.	.	.	.	.	8B-\	.	.	.	32bb-\LLL	.	.	.
.	.	.	.	.	.	.	.	.	.	.	.	.	.	.	.	.	.	.	.	.	.	.	.	.	.	.	32aa\	.	.	.
.	.	.	.	.	16d/	.	16f/	.	.	.	.	.	.	.	.	.	.	.	.	.	.	.	.	.	.	.	32gg\	.	.	.
.	.	.	.	.	.	.	.	.	.	.	.	.	.	.	.	.	.	.	.	.	.	.	.	.	.	.	32ff\JJJ	.	.	.
8r	.	.	8r	.	16B-/	.	16d/	.	.	.	.	.	.	.	.	.	.	.	.	.	.	.	8r	.	.	.	32ee-\LLL	.	.	.
.	.	.	.	.	.	.	.	.	.	.	.	.	.	.	.	.	.	.	.	.	.	.	.	.	.	.	32dd\	.	.	.
.	.	.	.	.	16d/JJ)	.	16f/JJ)	.	.	.	.	.	.	.	.	.	.	.	.	.	.	.	.	.	.	.	32cc\	.	.	.
.	.	.	.	.	.	.	.	.	.	.	.	.	.	.	.	.	.	.	.	.	.	.	.	.	.	.	32b-\JJJ	.	.	.
!	!	!	!	!	!LO:LB:g=original	!	!	!	!	!	!	!	!	!	!	!	!	!	!	!	!	!	!	!	!	!	!	!	!	!
=12	=12	=12	=12	=12	=12	=12	=12	=12	=12	=12	=12	=12	=12	=12	=12	=12	=12	=12	=12	=12	=12	=12	=12	=12	=12	=12	=12	=12	=12	=12
8F\	.	.	8f\	.	(16c/LL	.	16e-/LL	.	2r	.	.	4e-\	et	2r	.	.	2r	.	.	2ryy	2ryy	2ryy	8F\	.	.	.	4a\	.	2r	.
.	.	.	.	.	16e-/	.	16f/	.	.	.	.	.	.	.	.	.	.	.	.	.	.	.	.	.	.	.	.	.	.	.
8r	.	.	8r	.	16c/	.	16e-/	.	.	.	.	.	.	.	.	.	.	.	.	.	.	.	8r	.	.	.	.	.	.	.
.	.	.	.	.	16e-/	.	16f/	.	.	.	.	.	.	.	.	.	.	.	.	.	.	.	.	.	.	.	.	.	.	.
.	.	.	.	.	.	.	.	.	.	.	.	16qqf/LL	.	.	.	.	.	.	.	.	.	.	.	.	.	.	.	.	.	.
.	.	.	.	.	.	.	.	.	.	.	.	16qqe-/JJ	.	.	.	.	.	.	.	.	.	.	.	.	.	.	.	.	.	.
8F\	.	.	8f\	.	16c/	.	16e-/	.	.	.	.	(16d\LL	ho-	.	.	.	.	.	.	.	.	.	8f\	.	.	.	4r	.	.	.
.	.	.	.	.	16e-/	.	16f/	.	.	.	.	16c\)	.	.	.	.	.	.	.	.	.	.	.	.	.	.	.	.	.	.
8r	.	.	8r	.	16c/	.	16e-/	.	.	.	.	(16B-\	-mo	.	.	.	.	.	.	.	.	.	8r	.	.	.	.	.	.	.
.	.	.	.	.	16e-/JJ)	.	16f/JJ	.	.	.	.	16A\JJ)	.	.	.	.	.	.	.	.	.	.	.	.	.	.	.	.	.	.
*	*	*	*	*	*Xtremolo	*	*Xtremolo	*	*	*	*	*	*	*	*	*	*	*	*	*	*	*	*	*	*	*	*	*	*	*
=13	=13	=13	=13	=13	=13	=13	=13	=13	=13	=13	=13	=13	=13	=13	=13	=13	=13	=13	=13	=13	=13	=13	=13	=13	=13	=13	=13	=13	=13	=13
!	!	!	!	!	!	!	!	!	!	!	!	!	!	!	!	!	!	!	!	!	!	!	!	!	!LO:TX:a:i:t=Dolce	!LO:DY:rj	!	!	!	!
4B-\	.	.	4b-\	.	8B-/L	.	8d/L	.	2r	.	.	16B-\	fac-	2r	.	.	2r	.	.	2ryy	2ryy	2ryy	8BB-/	.	8r	p	8r	.	2r	.
.	.	.	.	.	.	.	.	.	.	.	.	16F/	-tus	.	.	.	.	.	.	.	.	.	.	.	.	.	.	.	.	.
.	.	.	.	.	8B-/J	.	8d/J	.	.	.	.	8F/	est	.	.	.	.	.	.	.	.	.	8r	.	8dd\	.	8ffM\	.	.	.
4r	.	.	4r	.	(16b-/LL	.	(16dd\LL	.	.	.	.	4r	.	.	.	.	.	.	.	.	.	.	8BB-/L	>	(16bb-\LL	.	(16ddd\LL	.	.	.
.	.	.	.	.	16a/	.	16cc\	.	.	.	.	.	.	.	.	.	.	.	.	.	.	.	.	.	16aa\	.	16ccc\	.	.	.
.	.	.	.	.	16g/)	.	16b-\	.	.	.	.	.	.	.	.	.	.	.	.	.	.	.	8D/J	]	16gg\	.	16bb-\	.	.	.
.	.	.	.	.	16g-X/JJ	.	16a\JJ)	.	.	.	.	.	.	.	.	.	.	.	.	.	.	.	.	.	16ff#X\JJ)	.	16aa\JJ)	.	.	.
!	!	!	!	!	!	!	!LO:LB:g=original	!	!	!	!	!	!	!	!	!	!	!	!	!	!	!	!	!	!	!	!LO:LB:g=original	!	!	!
=14	=14	=14	=14	=14	=14	=14	=14	=14	=14	=14	=14	=14	=14	=14	=14	=14	=14	=14	=14	=14	=14	=14	=14	=14	=14	=14	=14	=14	=14	=14
2r	.	.	2r	.	(16gn/LL	.	(16b-\LL	.	2r	.	.	2r	.	2r	.	.	2r	.	.	2ryy	2ryy	2ryy	4E-\	.	16gg\LL	.	(16bb-\LL	.	2r	.
.	.	.	.	.	16f/	.	16a\	.	.	.	.	.	.	.	.	.	.	.	.	.	.	.	.	.	16ffn\	.	16aa\	.	.	.
.	.	.	.	.	16e-/)	.	16g\	.	.	.	.	.	.	.	.	.	.	.	.	.	.	.	.	.	16ee-\	.	16gg\	.	.	.
.	.	.	.	.	16d/JJ	.	16f#X\JJ)	.	.	.	.	.	.	.	.	.	.	.	.	.	.	.	.	.	16dd\JJ	.	16ff#X\JJ)	.	.	.
.	.	.	.	.	(16e-/LL	.	(16g/LL	.	.	.	.	.	.	.	.	.	.	.	.	.	.	.	4r	.	16ee-\LL	.	(16gg\LL	.	.	.
.	.	.	.	.	16d/	.	16fn/	.	.	.	.	.	.	.	.	.	.	.	.	.	.	.	.	.	16dd\	.	16ff\	.	.	.
.	.	.	.	.	16c/)	.	16e-/	.	.	.	.	.	.	.	.	.	.	.	.	.	.	.	.	.	16cc\	.	16ee-\	.	.	.
.	.	.	.	.	16Bn/JJ	.	16d/JJ)	.	.	.	.	.	.	.	.	.	.	.	.	.	.	.	.	.	16bX\JJ	.	16dd\JJ)	.	.	.
!LO:LB:g=original	!	!	!	!	!	!	!	!	!	!	!	!LO:LB:g=original	!	!	!	!	!	!	!	!	!	!	!	!	!	!	!	!	!	!
=15	=15	=15	=15	=15	=15	=15	=15	=15	=15	=15	=15	=15	=15	=15	=15	=15	=15	=15	=15	=15	=15	=15	=15	=15	=15	=15	=15	=15	=15	=15
!LO:TX:t=P:problem=mixed beam	!	!	!LO:TX:t=P:problem=mixed beam	!	!	!LO:DY:a	!	!	!	!	!	!	!	!	!	!	!	!	!	!	!	!	!	!	!	!	!	!	!	!
8G\L	.	.	8g\L	.	4d 4B-^>/	.	(4f/	.	2r	.	.	(8.d\L	ex	2r	.	.	2r	.	.	2ryy	2ryy	2ryy	(8G\L	.	8.f/L	.	8.dd\L	.	2r	.
8GG/	.	.	8G/	.	.	.	.	.	.	.	.	.	.	.	.	.	.	.	.	.	.	.	8Bn\)	.	.	.	.	.	.	.
.	.	.	.	.	.	.	.	.	.	.	.	16Bn\Jk)	.	.	.	.	.	.	.	.	.	.	.	.	16d/Jk	.	16bX\Jk	.	.	.
!	!	!	!	!	!	!	!	!	!	!	!	!	!	!	!	!	!	!	!	!	!	!	!	!	!LO:TX:t=P:problem=mixed beam	!	!	!	!	!
8C/J	.	.	8B-/J	.	8e- 8c/	.	8e-/)	.	.	.	.	8c\L	Ma-	.	.	.	.	.	.	.	.	.	8c'\J	.	8e-M/L	.	8ccM\L	.	.	.
8r	.	.	8r	.	8r	.	8r	.	.	.	.	8g\J	.	.	.	.	.	.	.	.	.	.	8r	.	16cc\L	.	16ee-\L	.	.	.
.	.	.	.	.	.	.	.	.	.	.	.	.	.	.	.	.	.	.	.	.	.	.	.	.	16ee-\JJ	.	16gg\JJ	.	.	.
=16	=16	=16	=16	=16	=16	=16	=16	=16	=16	=16	=16	=16	=16	=16	=16	=16	=16	=16	=16	=16	=16	=16	=16	=16	=16	=16	=16	=16	=16	=16
!LO:TX:t=P:problem=mixed beam	!	!	!LO:TX:t=P:problem=mixed beam	!	!	!	!	!	!	!	!	!	!	!	!	!	!	!	!	!	!	!	!LO:TX:t=P:problem=mixed beam	!	!	!	!LO:TUP:a:problem=klamra łukowa	!	!	!
8BB-/L	.	.	8B-/L	.	8d/L	.	8f/L	.	2r	.	.	(8f\L	-ri-	2r	.	.	2r	.	.	2ryy	2ryy	2ryy	8D\L	.	8dd\L	.	24ff\LL	.	2r	.
.	.	.	.	.	.	.	.	.	.	.	.	.	.	.	.	.	.	.	.	.	.	.	.	.	.	.	24bb-\	.	.	.
.	.	.	.	.	.	.	.	.	.	.	.	.	.	.	.	.	.	.	.	.	.	.	.	.	.	.	24dd\JJ	.	.	.
*	*	*	*	*	*	*	*	*	*	*	*	*	*	*	*	*	*	*	*	*	*	*	*	*	*	*	*Xtuplet	*	*	*
8E-\	.	.	8e-\	.	8e-/	.	(8g/	.	.	.	.	8e-\J)	.	.	.	.	.	.	.	.	.	.	8E-\	.	(16g\L	.	24cc\LL	.	.	.
.	.	.	.	.	.	.	.	.	.	.	.	.	.	.	.	.	.	.	.	.	.	.	.	.	.	.	24ee-\	.	.	.
.	.	.	.	.	.	.	.	.	.	.	.	.	.	.	.	.	.	.	.	.	.	.	.	.	16e-\JJ)	.	.	.	.	.
.	.	.	.	.	.	.	.	.	.	.	.	.	.	.	.	.	.	.	.	.	.	.	.	.	.	.	24gg\JJ	.	.	.
8F\	.	.	8f\	.	8d/	.	8f/	.	.	.	.	(8d\L	-a	.	.	.	.	.	.	.	.	.	8F\	.	8d\L	.	8b-M\L	.	.	.
8FF/J	.	.	8F/J	.	8c/J	.	8e-/J)	.	.	.	.	8c\J)	.	.	.	.	.	.	.	.	.	.	8FF/J	.	16f\L	.	16dd\L	.	.	.
.	.	.	.	.	.	.	.	.	.	.	.	.	.	.	.	.	.	.	.	.	.	.	.	.	16e-\JJ	.	16cc\JJ	.	.	.
!	!	!	!	!	!	!	!	!	!	!	!	!	!	!	!	!	!	!	!	!	!	!	!	!	!LO:LB:g=original	!	!	!	!	!
=17	=17	=17	=17	=17	=17	=17	=17	=17	=17	=17	=17	=17	=17	=17	=17	=17	=17	=17	=17	=17	=17	=17	=17	=17	=17	=17	=17	=17	=17	=17
!	!	!	!	!	!	!	!	!	!	!	!	!	!	!	!	!	!	!	!	!	!	!	!LO:TX:t=P:problem=mixed beam	!	!	!	!	!	!	!
4BB-/	.	.	4B-/	.	(16B-/LL	.	(16d/LL	.	2r	.	.	(4B-\	Vir-	2r	.	.	2r	.	.	2ryy	2ryy	2ryy	8BB-/L	.	4f/	.	4b-\	.	2r	.
.	.	.	.	.	16d/)	.	16f/)	.	.	.	.	.	.	.	.	.	.	.	.	.	.	.	.	.	.	.	.	.	.	.
.	.	.	.	.	16d'/	.	16f'/	.	.	.	.	.	.	.	.	.	.	.	.	.	.	.	8B-\J	.	.	.	.	.	.	.
.	.	.	.	.	16d'/JJ	.	16f'/JJ	.	.	.	.	.	.	.	.	.	.	.	.	.	.	.	.	.	.	.	.	.	.	.
4r	.	.	4r	.	(16d/LL	.	(16f/LL	.	.	.	.	4Bnm\)	.	.	.	.	.	.	.	.	.	.	8f\L	.	4r	.	4r	.	.	.
.	.	.	.	.	16f/)	.	16a-X/)	.	.	.	.	.	.	.	.	.	.	.	.	.	.	.	.	.	.	.	.	.	.	.
.	.	.	.	.	16f'/	.	16a-'/	.	.	.	.	.	.	.	.	.	.	.	.	.	.	.	(16d\L	.	.	.	.	.	.	.
.	.	.	.	.	16f'/JJ	.	16a-'/JJ	.	.	.	.	.	.	.	.	.	.	.	.	.	.	.	16Bn\JJ)	.	.	.	.	.	.	.
!	!	!	!	!	!LO:LB:g=original	!	!	!	!	!	!	!	!	!	!	!	!	!	!	!	!	!	!LO:LB:g=original	!	!	!	!	!	!	!
=18	=18	=18	=18	=18	=18	=18	=18	=18	=18	=18	=18	=18	=18	=18	=18	=18	=18	=18	=18	=18	=18	=18	=18	=18	=18	=18	=18	=18	=18	=18
!LO:TX:a:t=1	!	!	!	!	!	!	!LO:N:vis=8	!	!	!	!	!	!	!	!	!	!	!	!	!	!	!	!LO:TX:t=P:problem=mixed beam	!	!	!	!	!	!	!
2r	.	.	2r	.	4e-/	.	4g/	.	2r	.	.	(32c\LLL	-gi-	2r	.	.	2r	.	.	2ryy	2ryy	2ryy	8c\L	.	4r	f	4r	f	2r	.
.	.	.	.	.	.	.	.	.	.	.	.	32B-\)	.	.	.	.	.	.	.	.	.	.	.	.	.	.	.	.	.	.
.	.	.	.	.	.	.	.	.	.	.	.	(32d\	.	.	.	.	.	.	.	.	.	.	.	.	.	.	.	.	.	.
.	.	.	.	.	.	.	.	.	.	.	.	32c\JJJ)	.	.	.	.	.	.	.	.	.	.	.	.	.	.	.	.	.	.
.	.	.	.	.	.	.	.	.	.	.	.	(32e-\LLL	.	.	.	.	.	.	.	.	.	.	8C/J	.	.	.	.	.	.	.
.	.	.	.	.	.	.	.	.	.	.	.	32d\)	.	.	.	.	.	.	.	.	.	.	.	.	.	.	.	.	.	.
.	.	.	.	.	.	.	.	.	.	.	.	(32f\	.	.	.	.	.	.	.	.	.	.	.	.	.	.	.	.	.	.
.	.	.	.	.	.	.	.	.	.	.	.	32e-\JJJ)	.	.	.	.	.	.	.	.	.	.	.	.	.	.	.	.	.	.
!	!	!	!	!	!	!	!	!	!	!	!	!	!	!	!	!	!	!	!	!	!	!	!	!	!	!LO:HP:a	!	!LO:HP:a	!	!
.	.	.	.	.	8r	.	8r	.	.	.	.	8g\L	.	.	.	.	.	.	.	.	.	.	8r	.	16g\LL	>	16.gg\LL	<	.	.
.	.	.	.	.	.	.	.	.	.	.	.	.	.	.	.	.	.	.	.	.	.	.	.	.	16a\	.	.	.	.	.
.	.	.	.	.	.	.	.	.	.	.	.	.	.	.	.	.	.	.	.	.	.	.	.	.	.	.	32aa\K	.	.	.
.	.	.	.	.	16r	.	16r	.	.	.	.	8en\J	.	.	.	.	.	.	.	.	.	.	8B-X\	.	16b-\	.	16.bb-\	.	.	.
.	.	.	.	.	16en 16c#X/	.	16g/	.	.	.	.	.	.	.	.	.	.	.	.	.	.	.	.	.	16g\JJ	]	.	.	.	.
.	.	.	.	.	.	.	.	.	.	.	.	.	.	.	.	.	.	.	.	.	.	.	.	.	.	.	32eeX\JJk	[[	.	.
=19	=19	=19	=19	=19	=19	=19	=19	=19	=19	=19	=19	=19	=19	=19	=19	=19	=19	=19	=19	=19	=19	=19	=19	=19	=19	=19	=19	=19	=19	=19
!	!	!	!	!	!	!	!LO:N:vis=4	!	!	!	!	!	!	!	!	!	!	!	!	!	!	!	!	!	!	!	!	!	!	!
8BB-/	.	.	8B-/	.	8d 8B-/	.	8f/	.	2r	.	.	4f\	-ne	2r	.	.	2r	.	.	2ryy	2ryy	2ryy	8d\L	.	8f/	.	(24ff\LL	.	2r	.
.	.	.	.	.	.	.	.	.	.	.	.	.	.	.	.	.	.	.	.	.	.	.	.	.	.	.	24ddd\	.	.	.
.	.	.	.	.	.	.	.	.	.	.	.	.	.	.	.	.	.	.	.	.	.	.	.	.	.	.	24bb-\JJ	.	.	.
8r	.	.	8r	.	4r	.	8r	.	.	.	.	.	.	.	.	.	.	.	.	.	.	.	8B-\J	.	4r	.	24gg\LL	.	.	.
.	.	.	.	.	.	.	.	.	.	.	.	.	.	.	.	.	.	.	.	.	.	.	.	.	.	.	24ff-X\	.	.	.
.	.	.	.	.	.	.	.	.	.	.	.	.	.	.	.	.	.	.	.	.	.	.	.	.	.	.	24dd-X\JJ	.	.	.
4r	.	.	4r	.	.	.	8r	.	.	.	.	4r	.	.	.	.	.	.	.	.	.	.	4r	.	.	.	24b-\LL	.	.	.
.	.	.	.	.	.	.	.	.	.	.	.	.	.	.	.	.	.	.	.	.	.	.	.	.	.	.	24g\	.	.	.
.	.	.	.	.	.	.	.	.	.	.	.	.	.	.	.	.	.	.	.	.	.	.	.	.	.	.	24f\JJ	.	.	.
.	.	.	.	.	8en/	.	8g/	.	.	.	.	.	.	.	.	.	.	.	.	.	.	.	.	.	8d-X/	.	24f-X/LL	.	.	.
.	.	.	.	.	.	.	.	.	.	.	.	.	.	.	.	.	.	.	.	.	.	.	.	.	.	.	24g/	.	.	.
.	.	.	.	.	.	.	.	.	.	.	.	.	.	.	.	.	.	.	.	.	.	.	.	.	.	.	24B-/JJ	.	.	.
=20	=20	=20	=20	=20	=20	=20	=20	=20	=20	=20	=20	=20	=20	=20	=20	=20	=20	=20	=20	=20	=20	=20	=20	=20	=20	=20	=20	=20	=20	=20
!	!	!	!	!	!	!	!	!	!	!	!	!	!	!	!	!	!	!	!	!	!	!	!LO:TX:a:t=4	!	!	!	!	!	!	!
8F\	.	.	8f\	.	8c/	.	8f/	.	2r	.	.	8r	.	2r	.	.	2r	.	.	2ryy	2ryy	2ryy	0r	.	8c/	.	8A/	.	2r	.
4r	.	.	4r	.	8r	.	8r	.	.	.	.	(4e-^\	et	.	.	.	.	.	.	.	.	.	.	.	4r	.	4r	.	.	.
.	.	.	.	.	8f/L	.	(8a\L	.	.	.	.	.	.	.	.	.	.	.	.	.	.	.	.	.	.	.	.	.	.	.
8BB-/	.	.	8B-/	.	8d/J	.	8b-\J)	.	.	.	.	8d\)	.	.	.	.	.	.	.	.	.	.	.	.	8b-\	.	8dd\)	.	.	.
!	!	!	!	!	!	!	!LO:LB:g=original	!	!	!	!	!LO:LB:g=original	!	!	!	!	!	!	!	!	!	!	!	!	!	!	!LO:PB:g=original	!	!	!
=21	=21	=21	=21	=21	=21	=21	=21	=21	=21	=21	=21	=21	=21	=21	=21	=21	=21	=21	=21	=21	=21	=21	=21	=21	=21	=21	=21	=21	=21	=21
8F\	.	.	8f\	.	8A/	.	8cc\	.	2r	.	.	(8c\	ho-	2r	.	.	2r	.	.	2ryy	2ryy	2ryy	.	.	8a\	.	8cc\	.	2r	.
4r	.	.	4r	.	8r	.	8r	.	.	.	.	4g^\)	.	.	.	.	.	.	.	.	.	.	.	.	8r	.	8r	.	.	.
.	.	.	.	.	8b-\L	.	8dd-X\L	.	.	.	.	.	.	.	.	.	.	.	.	.	.	.	.	.	4r	.	4r	.	.	.
8B-\	.	.	8b-\	.	8b-\J	.	8ddn\J	.	.	.	.	8f\	-mo	.	.	.	.	.	.	.	.	.	.	.	.	.	.	.	.	.
*clefC4	*	*	*	*	*	*	*	*	*	*	*	*	*	*	*	*	*	*	*	*	*	*	*	*	*	*	*	*	*	*
=22	=22	=22	=22	=22	=22	=22	=22	=22	=22	=22	=22	=22	=22	=22	=22	=22	=22	=22	=22	=22	=22	=22	=22	=22	=22	=22	=22	=22	=22	=22
!	!	!	!	!	!LO:TX:t=P:problem=mixed beam	!	!LO:TX:t=P:problem=mixed beam	!	!	!	!	!	!	!	!	!	!	!	!	!	!	!	!	!	!LO:TX:a:t=4	!	!LO:TX:a:t=4	!	!	!
4g\	#5 -3	.	4g\	.	16dd-X\LL	.	(16een\LL	.	2r	.	.	4en\	ho-	2r	.	.	2r	.	.	2ryy	2ryy	2ryy	.	.	0r	.	0r	.	2r	.
.	.	.	.	.	16en/	.	16g/)	.	.	.	.	.	.	.	.	.	.	.	.	.	.	.	.	.	.	.	.	.	.	.
.	.	.	.	.	16e/	.	16g'/	.	.	.	.	.	.	.	.	.	.	.	.	.	.	.	.	.	.	.	.	.	.	.
.	.	.	.	.	16e/JJ	.	16g'/JJ	.	.	.	.	.	.	.	.	.	.	.	.	.	.	.	.	.	.	.	.	.	.	.
4r	.	.	4r	.	16e-XLL 16c/	.	16r	.	.	.	.	4e-XM\	-mo	.	.	.	.	.	.	.	.	.	.	.	.	.	.	.	.	.
.	.	.	.	.	16e- 16c/	.	16f/LL	.	.	.	.	.	.	.	.	.	.	.	.	.	.	.	.	.	.	.	.	.	.	.
.	.	.	.	.	16e- 16c/	.	16f/	.	.	.	.	.	.	.	.	.	.	.	.	.	.	.	.	.	.	.	.	.	.	.
.	.	.	.	.	16e-JJ 16c/	.	16f/JJ	.	.	.	.	.	.	.	.	.	.	.	.	.	.	.	.	.	.	.	.	.	.	.
!	!	!	!	!	!LO:LB:g=original	!	!	!	!	!	!	!	!	!	!	!	!	!	!	!	!	!	!	!	!	!	!	!	!	!
=23	=23	=23	=23	=23	=23	=23	=23	=23	=23	=23	=23	=23	=23	=23	=23	=23	=23	=23	=23	=23	=23	=23	=23	=23	=23	=23	=23	=23	=23	=23
!	!	!	!LO:TX:a:t=1	!	!	!	!	!LO:HP:b	!	!	!	!	!	!	!	!	!	!	!	!	!	!	!	!	!	!	!	!	!	!
2r	.	.	2r	.	16.d/LL	.	16.f/LL	>	2r	.	.	(16d\LL	fa-	2r	.	.	2r	.	.	2ryy	2ryy	2ryy	.	.	.	.	.	.	2r	.
!	!	!	!	!	!	!LO:HP:b	!	!	!	!	!	!	!	!	!	!	!	!	!	!	!	!	!	!	!	!	!	!	!	!
.	.	.	.	.	.	>	.	.	.	.	.	16Bn\JJ)	.	.	.	.	.	.	.	.	.	.	.	.	.	.	.	.	.	.
.	.	.	.	.	32f/JK	.	32a-X/JJK	.	.	.	.	.	.	.	.	.	.	.	.	.	.	.	.	.	.	.	.	.	.	.
.	.	.	.	.	8e-/J	]	8g/	]	.	.	.	(16c\LL	.	.	.	.	.	.	.	.	.	.	.	.	.	.	.	.	.	.
.	.	.	.	.	.	.	.	.	.	.	.	32a-X\L	.	.	.	.	.	.	.	.	.	.	.	.	.	.	.	.	.	.
.	.	.	.	.	.	.	.	.	.	.	.	32g\JJJ)	.	.	.	.	.	.	.	.	.	.	.	.	.	.	.	.	.	.
.	.	.	.	.	4r	.	4r	.	.	.	.	(16f\LL	.	.	.	.	.	.	.	.	.	.	.	.	.	.	.	.	.	.
.	.	.	.	.	.	.	.	.	.	.	.	16e-\	.	.	.	.	.	.	.	.	.	.	.	.	.	.	.	.	.	.
.	.	.	.	.	.	.	.	.	.	.	.	16d\	-ctus	.	.	.	.	.	.	.	.	.	.	.	.	.	.	.	.	.
.	.	.	.	.	.	.	.	.	.	.	.	16c\JJ)	.	.	.	.	.	.	.	.	.	.	.	.	.	.	.	.	.	.
!	!	!	!LO:LB:g=original	!	!	!	!	!	!	!	!	!	!	!	!	!	!	!	!	!	!	!	!	!	!	!	!	!	!	!
=24	=24	=24	=24	=24	=24	=24	=24	=24	=24	=24	=24	=24	=24	=24	=24	=24	=24	=24	=24	=24	=24	=24	=24	=24	=24	=24	=24	=24	=24	=24
*clefF4	*	*	*	*	*	*	*	*	*	*	*	*	*	*	*	*	*	*	*	*	*	*	*	*	*	*	*	*	*	*
8B-\	.	.	8b-\	.	16r	.	16r	.	2r	.	.	4B-M\	fa-	2r	.	.	2r	.	.	2ryy	2ryy	2ryy	8r	.	.	.	.	.	2r	.
.	.	.	.	.	16B-/LL	.	16d/LL	.	.	.	.	.	.	.	.	.	.	.	.	.	.	.	.	.	.	.	.	.	.	.
8r	.	.	8r	.	16B-/	.	16d/	.	.	.	.	.	.	.	.	.	.	.	.	.	.	.	16.B-\LL	.	.	.	.	.	.	.
.	.	.	.	.	16B-/JJ	.	16d/JJ	.	.	.	.	.	.	.	.	.	.	.	.	.	.	.	.	.	.	.	.	.	.	.
.	.	.	.	.	.	.	.	.	.	.	.	.	.	.	.	.	.	.	.	.	.	.	32d\JJk	.	.	.	.	.	.	.
8F\	.	.	8f\	.	8d/L	.	8f/L	.	.	.	.	16.d\LL	.	.	.	.	.	.	.	.	.	.	8f\L	.	.	.	.	.	.	.
.	.	.	.	.	.	.	.	.	.	.	.	32e-\K	.	.	.	.	.	.	.	.	.	.	.	.	.	.	.	.	.	.
8r	.	.	8r	.	8c/J	.	8e-/J	.	.	.	.	16.c\	.	.	.	.	.	.	.	.	.	.	8F\J	.	.	.	.	.	.	.
.	.	.	.	.	.	.	.	.	.	.	.	32d\JJk	-ctus	.	.	.	.	.	.	.	.	.	.	.	.	.	.	.	.	.
!LO:LB:g=original	!	!	!	!	!	!	!	!	!	!	!	!	!	!	!	!	!	!	!	!	!	!	!	!	!	!	!	!	!	!
=25	=25	=25	=25	=25	=25	=25	=25	=25	=25	=25	=25	=25	=25	=25	=25	=25	=25	=25	=25	=25	=25	=25	=25	=25	=25	=25	=25	=25	=25	=25
!	!	!LO:DY:b:rj:t=ffor	!	!LO:DY:b:rj	!	!LO:DY:b:rj	!LO:TX:t=P:problem=mixed beam	!LO:DY:b:rj:t=ffor	!	!	!	!	!	!	!	!	!	!	!	!	!	!	!	!LO:DY:rj	!	!	!	!	!	!
16.B-'\LL	.	ff	16.b-\LL	ff	16.B-/LL	ff	16.d/LL	ff	2r	.	.	4B-\	est	2r	.	.	2r	.	.	2ryy	2ryy	2ryy	16.B-\LL	f	.	.	.	.	2r	.
32c'\K	.	.	32cc\K	.	32c/K	.	(32cc\K	.	.	.	.	.	.	.	.	.	.	.	.	.	.	.	32c\K	.	.	.	.	.	.	.
16.d-X'\	.	.	16.dd-X\	.	16.d-X/	.	16.dd-X\	.	.	.	.	.	.	.	.	.	.	.	.	.	.	.	16.d-X\	.	.	.	.	.	.	.
32c'\JJk	.	.	32cc\JJk	.	32c/JJk	.	32cc\JJk)	.	.	.	.	.	.	.	.	.	.	.	.	.	.	.	32c\JJk	.	.	.	.	.	.	.
16.B-\LL	.	.	16.b-\LL	.	16.B-/LL	.	(16.b-\LL	.	.	.	.	4r	.	.	.	.	.	.	.	.	.	.	16.B-\LL	.	.	.	.	.	.	.
32A-X\K	.	.	32a-X\K	.	32a-X/K	.	32a\K	.	.	.	.	.	.	.	.	.	.	.	.	.	.	.	32A-X\K	.	.	.	.	.	.	.
16.G\	.	.	16.g\	.	16.g/	.	16.g\	.	.	.	.	.	.	.	.	.	.	.	.	.	.	.	16.G\	.	.	.	.	.	.	.
32F\JJk	.	.	32f\JJk	.	32f/JJk	.	32f\JJk)	.	.	.	.	.	.	.	.	.	.	.	.	.	.	.	32F\JJk	.	.	.	.	.	.	.
=26	=26	=26	=26	=26	=26	=26	=26	=26	=26	=26	=26	=26	=26	=26	=26	=26	=26	=26	=26	=26	=26	=26	=26	=26	=26	=26	=26	=26	=26	=26
*	*	*	*	*	*Xtuplet	*	*	*	*	*	*	*	*	*	*	*	*	*	*	*	*	*	*	*	*	*	*	*	*	*
!	!	!	!	!	!	!	!	!	!	!	!	!	!	!	!	!LO:HP:a	!	!	!	!	!	!	!	!LO:HP:a	!	!LO:DY:rj:t=fo	!	!LO:DY:rj	!	!LO:DY:b:rj
!	!	!	!	!	!	!	!LO:TUP:b:problem=klamra łukowa	!	!	!	!LO:DY:b:rj	!	!	!	!	!LO:DY:b:rj	!	!	!LO:DY:b:rj	!	!	!	!	!LO:DY:rj	!	!	!	!	!	!
8En\L	.	.	8en\L	.	24enLL 24G/	.	24en/LL	.	8.G\	Cru-	f	8.en\	Cru-	8.b-\	Cru-	f >	8.dd-\	Cru-	f	2ryy	2ryy	2ryy	(16.En\LL	ff >	8.b-\	f	8.ff-X\	ff	8.bb-\	f
!	!	!	!	!	!	!	!	!	!	!	!	!	!	!	!	!	!	!	!	!	!	!	!	!	!	!	!	!	!	!LO:HP:a
.	.	.	.	.	24e 24G/	.	24g/	.	.	.	.	.	.	.	.	.	.	.	.	.	.	.	.	.	.	.	.	.	.	>
.	.	.	.	.	24eJJ 24G/	.	24b-/JJ	.	.	.	.	.	.	.	.	.	.	.	.	.	.	.	.	.	.	.	.	.	.	.
.	.	.	.	.	.	.	.	.	.	.	.	.	.	.	.	.	.	.	.	.	.	.	32G\K	.	.	.	.	.	.	.
*	*	*	*	*	*rep	*	*	*	*	*	*	*	*	*	*	*	*	*	*	*	*	*	*	*	*	*	*	*	*	*
!	!	!	!	!	!	!	!LO:TUP:a:problem=klamra łukowa	!	!	!	!	!	!	!	!	!	!	!	!	!	!	!	!	!	!	!	!	!	!	!
8G\	.	.	8g\	.	24eLL 24G/	.	24dd-X\LL	.	.	.	.	.	.	.	.	.	.	.	.	.	.	.	16.B-\	.	.	.	.	.	.	.
.	.	.	.	.	24e 24G/	.	24een\	.	.	.	.	.	.	.	.	.	.	.	.	.	.	.	.	.	.	.	.	.	.	.
.	.	.	.	.	.	.	.	.	16G\	-ci-	.	16e\	-ci-	16b-\	-ci-	.	16dd-\	-ci-	.	.	.	.	.	.	16b-\	.	16ff-\	.	16bb-\	.
.	.	.	.	.	24eJJ 24G/	.	24gg\JJ	.	.	.	.	.	.	.	.	.	.	.	.	.	.	.	.	.	.	.	.	.	.	.
.	.	.	.	.	.	.	.	.	.	.	.	.	.	.	.	.	.	.	.	.	.	.	32d-X\JJk)	]	.	.	.	.	.	.
*	*	*	*	*	*Xrep	*	*Xtuplet	*	*	*	*	*	*	*	*	*	*	*	*	*	*	*	*	*	*	*	*	*	*	*
8C\	.	.	8b-\	.	24enLL 24G/	.	24bb-\LL	.	4G\	-fi-	.	4e\	-fi-	4b-\	-fi-	]	4dd-\	-fi-	.	.	.	.	(16.B-\LL	.	8b-\	.	8ff-\	.	8bb-\L	.
.	.	.	.	.	24e 24G/	.	24gg\	.	.	.	.	.	.	.	.	.	.	.	.	.	.	.	.	.	.	.	.	.	.	.
.	.	.	.	.	24eJJ 24G/	.	24ff\JJ	.	.	.	.	.	.	.	.	.	.	.	.	.	.	.	.	.	.	.	.	.	.	.
!	!	!	!	!	!	!	!	!	!	!	!	!	!	!	!	!	!	!	!	!	!	!	!	!LO:HP:a	!	!	!	!	!	!
.	.	.	.	.	.	.	.	.	.	.	.	.	.	.	.	.	.	.	.	.	.	.	32G\K	>	.	.	.	.	.	.
*	*	*	*	*	*rep	*	*	*	*	*	*	*	*	*	*	*	*	*	*	*	*	*	*	*	*	*	*	*	*	*
8E\J	.	.	8e\J	.	24eLL 24G/	.	24een\LL	.	.	.	.	.	.	.	.	.	.	.	.	.	.	.	16.En\	.	8b-\	.	8ff-\	.	8bb-\J	]]
.	.	.	.	.	24e 24G/	.	24gg\	.	.	.	.	.	.	.	.	.	.	.	.	.	.	.	.	.	.	.	.	.	.	.
.	.	.	.	.	24eJJ 24G/	.	24cc\JJ	.	.	.	.	.	.	.	.	.	.	.	.	.	.	.	.	.	.	.	.	.	.	.
!	!	!	!	!	!LO:TX:b:t=Et in	!	!	!	!	!	!	!	!	!	!	!	!	!	!	!	!	!	!LO:TX:t=P:problem=wykreślone 4 takty	!	!	!	!	!	!	!
.	.	.	.	.	.	.	.	.	.	.	.	.	.	.	.	.	.	.	.	.	.	.	32G\JJk)	]]	.	.	.	.	.	.
*	*	*	*	*	*Xrep	*	*	*	*	*	*	*	*	*	*	*	*	*	*	*	*	*	*	*	*	*	*	*	*	*
!	!	!	!	!	!LO:PB:g=original	!	!LO:LB:g=original	!	!	!	!	!LO:LB:g=original	!	!	!	!	!	!	!	!	!	!	!LO:LB:g=original	!	!	!	!	!	!	!
=27	=27	=27	=27	=27	=27	=27	=27	=27	=27	=27	=27	=27	=27	=27	=27	=27	=27	=27	=27	=27	=27	=27	=27	=27	=27	=27	=27	=27	=27	=27
*	*	*	*	*	*	*	*tuplet	*	*	*	*	*	*	*	*	*	*	*	*	*	*	*	*	*	*	*	*	*	*	*
!	!	!	!	!	!LO:TX:a:t=carnatus	!	!LO:TUP:a:problem=klamra łukowa	!	!	!	!	!	!	!	!	!	!	!	!	!	!	!	!	!	!	!	!	!	!	!
8F\L	.	.	8f\L	.	8fL 8A-X/	.	24aa-X\LL	.	4F\	-xus	.	4f\	-ctus	4a-X\	-xus	.	4cc\	-xus	.	2ryy	2ryy	2ryy	(8D\L	.	4a-X\	.	4ffn\	.	4ccc\	.
.	.	.	.	.	.	.	24bn\	.	.	.	.	.	.	.	.	.	.	.	.	.	.	.	.	.	.	.	.	.	.	.
.	.	.	.	.	.	.	24cc\JJ	.	.	.	.	.	.	.	.	.	.	.	.	.	.	.	.	.	.	.	.	.	.	.
!	!	!	!	!	!	!	!LO:TUP:a:problem=klamra łukowa	!	!	!	!	!	!	!	!	!	!	!	!	!	!	!	!	!	!	!	!	!	!	!
8C\	.	.	8b-\	.	8f 8A-/	.	24aa-\LL	.	.	.	.	.	.	.	.	.	.	.	.	.	.	.	8c\	.	.	.	.	.	.	.
.	.	.	.	.	.	.	24een\	.	.	.	.	.	.	.	.	.	.	.	.	.	.	.	.	.	.	.	.	.	.	.
.	.	.	.	.	.	.	24ff\JJ	.	.	.	.	.	.	.	.	.	.	.	.	.	.	.	.	.	.	.	.	.	.	.
*	*	*	*	*	*	*	*Xtuplet	*	*	*	*	*	*	*	*	*	*	*	*	*	*	*	*	*	*	*	*	*	*	*
8A-X\	.	.	8a-X\	.	8f 8A-/	.	24bn/LL	.	4r	.	.	4r	.	4r	.	.	4r	.	.	.	.	.	8A-X\	.	4r	.	4r	.	4r	.
.	.	.	.	.	.	.	24cc/	.	.	.	.	.	.	.	.	.	.	.	.	.	.	.	.	.	.	.	.	.	.	.
.	.	.	.	.	.	.	24g/JJ	.	.	.	.	.	.	.	.	.	.	.	.	.	.	.	.	.	.	.	.	.	.	.
8F\J	.	.	8f\J	.	8fJ 8A-/	.	24a-X/LL	.	.	.	.	.	.	.	.	.	.	.	.	.	.	.	8F\J)	.	.	.	.	.	.	.
.	.	.	.	.	.	.	24en/	.	.	.	.	.	.	.	.	.	.	.	.	.	.	.	.	.	.	.	.	.	.	.
.	.	.	.	.	.	.	24f/JJ	.	.	.	.	.	.	.	.	.	.	.	.	.	.	.	.	.	.	.	.	.	.	.
!	!	!	!	!	!	!	!	!	!	!	!	!	!	!	!	!	!	!	!	!	!	!	!	!	!LO:LB:g=original	!	!	!	!	!
=28	=28	=28	=28	=28	=28	=28	=28	=28	=28	=28	=28	=28	=28	=28	=28	=28	=28	=28	=28	=28	=28	=28	=28	=28	=28	=28	=28	=28	=28	=28
!	!	!	!	!	!	!LO:HP:a	!	!	!	!	!	!	!	!	!	!	!	!	!	!	!	!	!	!	!	!	!	!	!	!LO:HP:a
8D\L	.	.	8d\L	.	24dLL 24B-/	>	24d/LL	.	8.A-X\	e-	.	8.f\	e-	8.b-\	e-	.	8.ddn\	e-	.	2ryy	2ryy	2ryy	(16.D\LL	.	8.a-X\	.	8.dd\	.	8.fff\L	>
.	.	.	.	.	24d 24B-/	.	24f/	.	.	.	.	.	.	.	.	.	.	.	.	.	.	.	.	.	.	.	.	.	.	.
.	.	.	.	.	24dJJ 24B-/	.	24a-X/JJ	.	.	.	.	.	.	.	.	.	.	.	.	.	.	.	.	.	.	.	.	.	.	.
.	.	.	.	.	.	.	.	.	.	.	.	.	.	.	.	.	.	.	.	.	.	.	32F\K	.	.	.	.	.	.	.
*	*	*	*	*	*rep	*	*	*	*	*	*	*	*	*	*	*	*	*	*	*	*	*	*	*	*	*	*	*	*	*
8F\	.	.	8f\	.	24dLL 24B-/	.	24b-\LL	.	.	.	.	.	.	.	.	.	.	.	.	.	.	.	16.A-X\	.	.	.	.	.	.	.
.	.	.	.	.	24d 24B-/	.	24dd\	.	.	.	.	.	.	.	.	.	.	.	.	.	.	.	.	.	.	.	.	.	.	.
.	.	.	.	.	.	.	.	.	16A-\	-ti-	.	16f\	-ti-	16b-\	-ti-	.	16dd\	-ti-	.	.	.	.	.	.	16a-\	.	16dd\	.	16fff\Jk	.
.	.	.	.	.	24dJJ 24B-/	.	24ff\JJ	.	.	.	.	.	.	.	.	.	.	.	.	.	.	.	.	.	.	.	.	.	.	.
.	.	.	.	.	.	]	.	.	.	.	.	.	.	.	.	.	.	.	.	.	.	.	32Bn\JJk)	.	.	.	.	.	.	.
*	*	*	*	*	*Xrep	*	*	*	*	*	*	*	*	*	*	*	*	*	*	*	*	*	*	*	*	*	*	*	*	*
!	!	!	!	!	!	!LO:HP:a	!	!	!	!	!	!	!	!	!	!	!	!	!	!	!	!	!	!	!	!	!	!	!	!
8BB-\	.	.	8B-\	.	24dLL 24B-/	<	24aa-X\LL	.	8A-\	-am	.	8f\	-am	8b-\	-am	.	8dd\	-am	.	.	.	.	(16.A-\LL	.	8a-\	.	8dd\	.	8fff\L	.
.	.	.	.	.	24d 24B-/	.	24een\	.	.	.	.	.	.	.	.	.	.	.	.	.	.	.	.	.	.	.	.	.	.	.
.	.	.	.	.	24dJJ 24B-/	.	24ff\JJ	.	.	.	.	.	.	.	.	.	.	.	.	.	.	.	.	.	.	.	.	.	.	.
.	.	.	.	.	.	.	.	.	.	.	.	.	.	.	.	.	.	.	.	.	.	.	32F\K	.	.	.	.	.	.	.
*	*	*	*	*	*rep	*	*	*	*	*	*	*	*	*	*	*	*	*	*	*	*	*	*	*	*	*	*	*	*	*
8D\J	.	.	8d\J	.	24dLL 24B-/	.	24cc#X\LL	.	8A-\	pro	.	8f\	pro	8b-\	pro	.	8dd\	pro	.	.	.	.	16.D\	.	8a-\	.	8dd\	.	8fff\J	.
.	.	.	.	.	24d 24B-/	.	24dd\	.	.	.	.	.	.	.	.	.	.	.	.	.	.	.	.	.	.	.	.	.	.	.
.	.	.	.	.	24dJJ 24B-/	.	24b-\JJ	.	.	.	.	.	.	.	.	.	.	.	.	.	.	.	.	.	.	.	.	.	.	.
.	.	.	.	.	.	[	.	.	.	.	.	.	.	.	.	.	.	.	.	.	.	.	32F\JJk)	.	.	.	.	.	.	.
*	*	*	*	*	*Xrep	*	*	*	*	*	*	*	*	*	*	*	*	*	*	*	*	*	*	*	*	*	*	*	*	*
!	!	!	!	!	!	!	!	!	!	!	!	!	!	!LO:LB:g=original	!	!	!	!	!	!	!	!	!	!	!	!	!	!	!	!
=29	=29	=29	=29	=29	=29	=29	=29	=29	=29	=29	=29	=29	=29	=29	=29	=29	=29	=29	=29	=29	=29	=29	=29	=29	=29	=29	=29	=29	=29	=29
8E-\L	.	.	8e-\L	.	8e-L 8G/	.	24gg\LL	.	8G\	no-	.	8g\	no-	8b-\	no-	.	8ee-\	no-	.	2ryy	2ryy	2ryy	8E-\L	.	4g/	.	4ee-\	.	4ggg\	]
.	.	.	.	.	.	.	(24a\	.	.	.	.	.	.	.	.	.	.	.	.	.	.	.	.	.	.	.	.	.	.	.
.	.	.	.	.	.	.	24b-\JJ)	.	.	.	.	.	.	.	.	.	.	.	.	.	.	.	.	.	.	.	.	.	.	.
8BB-\	.	.	8b-\	.	8e- 8G/	.	24gg\LL	.	8E-\	-bis	.	8g\	-bis	8b-\	-bis	.	8ee-\	-bis	.	.	.	.	8B-\	.	.	.	.	.	.	.
.	.	.	.	.	.	.	24dd\	.	.	.	.	.	.	.	.	.	.	.	.	.	.	.	.	.	.	.	.	.	.	.
.	.	.	.	.	.	.	24ee-\JJ	.	.	.	.	.	.	.	.	.	.	.	.	.	.	.	.	.	.	.	.	.	.	.
8G\	.	.	8g\	.	8e- 8G/	.	(24a/LL	.	8r	.	.	8r	.	8r	.	.	8r	.	.	.	.	.	8G\	.	4r	.	4r	.	4r	.
.	.	.	.	.	.	.	24b-/	.	.	.	.	.	.	.	.	.	.	.	.	.	.	.	.	.	.	.	.	.	.	.
.	.	.	.	.	.	.	24g-X/JJ)	.	.	.	.	.	.	.	.	.	.	.	.	.	.	.	.	.	.	.	.	.	.	.
8E-\J	.	.	8e-\J	.	8e-J 8G/	.	24gn/LL	.	8E-\	sub	.	8g\	sub	8b-\	sub	.	8ee-\	sub	.	.	.	.	8E-\J	.	.	.	.	.	.	.
.	.	.	.	.	.	.	24d/	.	.	.	.	.	.	.	.	.	.	.	.	.	.	.	.	.	.	.	.	.	.	.
.	.	.	.	.	.	.	24e-/JJ	.	.	.	.	.	.	.	.	.	.	.	.	.	.	.	.	.	.	.	.	.	.	.
!	!	!	!	!	!LO:LB:g=original	!	!LO:LB:g=original	!	!LO:LB:g=original	!	!	!	!	!	!	!	!LO:LB:g=original	!	!	!	!	!	!	!	!	!	!	!	!	!
=30	=30	=30	=30	=30	=30	=30	=30	=30	=30	=30	=30	=30	=30	=30	=30	=30	=30	=30	=30	=30	=30	=30	=30	=30	=30	=30	=30	=30	=30	=30
!	!	!	!	!	!	!	!	!	!	!	!	!	!	!	!	!	!	!	!	!	!	!	!	!LO:HP:a	!	!	!	!	!	!LO:HP:a
!LO:TUP:a:problem=klamra łukowa	!	!	!	!	!	!LO:DY:b:rj	!	!LO:HP:b	!	!	!	!	!	!	!	!	!	!	!	!	!	!	!	!LO:DY:rj	!	!	!	!	!	!
24En\LL	.	.	24en\LL	.	24b-LL 24g/	f	24dd-XLL 24en/	>	8.G\	pon-	.	8.g\	pon-	8.dd-X\	pon-	.	8.een\	pon-	.	2ryy	2ryy	2ryy	16.En\LL	f >	8.b-\	.	8.dd-X\	.	8.eeen\L	>
24G\	.	.	24g\	.	24b- 24g/	.	24dd- 24e/	.	.	.	.	.	.	.	.	.	.	.	.	.	.	.	.	.	.	.	.	.	.	.
24B-\JJ	.	.	24b-\JJ	.	24b-JJ 24g/	.	24dd-JJ 24e/	.	.	.	.	.	.	.	.	.	.	.	.	.	.	.	.	.	.	.	.	.	.	.
.	.	.	.	.	.	.	.	.	.	.	.	.	.	.	.	.	.	.	.	.	.	.	32G\K	.	.	.	.	.	.	.
*	*	*	*Xtuplet	*	*rep	*	*rep	*	*	*	*	*	*	*	*	*	*	*	*	*	*	*	*	*	*	*	*	*	*	*
!LO:TUP:a:problem=klamra łukowa	!	!	!	!	!	!	!	!	!	!	!	!	!	!	!	!	!	!	!	!	!	!	!	!	!	!	!	!	!	!
24d-X\LL	.	.	24dd-X\LL	.	24b-LL 24g/	.	24dd-LL 24e/	.	.	.	.	.	.	.	.	.	.	.	.	.	.	.	16.B-\	.	.	.	.	.	.	.
24B-\	.	.	24b-\	.	24b- 24g/	.	24dd- 24e/	.	.	.	.	.	.	.	.	.	.	.	.	.	.	.	.	.	.	.	.	.	.	.
.	.	.	.	.	.	.	.	.	16G\	-ti-	.	16g\	-ti-	16dd-\	-ti-	.	16ee\	-ti-	.	.	.	.	.	.	16b-\	.	16dd-\	.	16eee\Jk	.
24G\JJ	.	.	24g\JJ	.	24b-JJ 24g/	.	24dd-JJ 24e/	.	.	.	.	.	.	.	.	.	.	.	.	.	.	.	.	]	.	.	.	.	.	.
.	.	.	.	.	.	.	.	]	.	.	.	.	.	.	.	.	.	.	.	.	.	.	32d-X\JJk	.	.	.	.	.	.	.
*	*	*	*	*	*Xrep	*	*Xrep	*	*	*	*	*	*	*	*	*	*	*	*	*	*	*	*	*	*	*	*	*	*	*
!LO:TUP:a:problem=klamra łukowa	!	!	!	!	!	!	!	!LO:HP:b	!	!	!	!	!	!	!	!	!	!	!	!	!	!	!	!	!	!	!	!	!	!
24En\LL	.	.	24en\LL	.	24b-LL 24g/	.	24dd-LL 24e/	>	8G\	-o	.	8g\	-o	8dd-\	-o	.	8ee\	-o	.	.	.	.	16.B-\LL	.	8b-\	.	8dd-\	.	8eee\L	.
24G\	.	.	24g\	.	24b- 24g/	.	24dd- 24e/	.	.	.	.	.	.	.	.	.	.	.	.	.	.	.	.	.	.	.	.	.	.	.
24D-X\JJ	.	.	24d-X\JJ	.	24b-JJ 24g/	.	24dd-JJ 24e/	.	.	.	.	.	.	.	.	.	.	.	.	.	.	.	.	.	.	.	.	.	.	.
!	!	!	!	!	!	!	!	!	!	!	!	!	!	!	!	!	!	!	!	!	!	!	!	!LO:HP:a	!	!	!	!	!	!
.	.	.	.	.	.	.	.	.	.	.	.	.	.	.	.	.	.	.	.	.	.	.	32G\K	>	.	.	.	.	.	.
*	*	*	*	*	*rep	*	*rep	*	*	*	*	*	*	*	*	*	*	*	*	*	*	*	*	*	*	*	*	*	*	*
!LO:TUP:b:problem=klamra łukowa	!	!	!	!	!	!	!	!	!	!	!	!	!	!	!	!	!	!	!	!	!	!	!	!	!	!	!	!	!	!
24BB-/LL	.	.	24B-/LL	.	24b-LL 24g/	.	24dd-LL 24e/	.	8G\	pi-	.	8g\	pi-	8dd-\	pi-	.	8ee\	pi-	.	.	.	.	16.En\	.	8b-\	.	8dd-\	.	8eee\J	.
24GG/	.	.	24G/	.	24b- 24g/	.	24dd- 24e/	.	.	.	.	.	.	.	.	.	.	.	.	.	.	.	.	.	.	.	.	.	.	.
24EE-/JJ	.	.	24E-/JJ	.	24b-JJ 24g/	.	24dd-JJ 24e/	.	.	.	.	.	.	.	.	.	.	.	.	.	.	.	.	.	.	.	.	.	.	.
.	.	.	.	.	.	.	.	]	.	.	.	.	.	.	.	.	.	.	.	.	.	.	32G\JJk	]	.	.	.	.	.	]
*	*	*	*	*	*Xrep	*	*Xrep	*	*	*	*	*	*	*	*	*	*	*	*	*	*	*	*	*	*	*	*	*	*	*
!LO:LB:g=original	!	!	!	!	!	!	!	!	!	!	!	!	!	!	!	!	!	!	!	!	!	!	!	!	!	!	!	!	!	!
=31	=31	=31	=31	=31	=31	=31	=31	=31	=31	=31	=31	=31	=31	=31	=31	=31	=31	=31	=31	=31	=31	=31	=31	=31	=31	=31	=31	=31	=31	=31
!LO:TX:t=P:problem=mixed beam	!	!	!LO:TX:t=P:problem=takt niewidoczny	!	!	!	!	!LO:HP:b	!	!	!	!	!	!	!	!	!	!	!	!	!	!	!	!	!	!	!	!	!	!
8FF/L	.	.	8F/	.	(24a-X/LL	.	(24cc\LL	<	8A-X\	-la-	.	8f\	-la-	8cc\	-la-	.	8ff\	-la-	.	2ryy	2ryy	2ryy	8F\	.	8a-X\	.	8cc\	.	8fff\L	.
.	.	.	.	.	24en/	.	24een\	.	.	.	.	.	.	.	.	.	.	.	.	.	.	.	.	.	.	.	.	.	.	.
.	.	.	.	.	24f/JJ	.	24ff\JJ	.	.	.	.	.	.	.	.	.	.	.	.	.	.	.	.	.	.	.	.	.	.	.
8F\J	.	.	8ryy	.	24g-X/LL	.	24gg-X\LL	.	8A-\	-to	.	8f\	-to	8cc\	-to	.	8ff\	-to	.	.	.	.	8F\	.	8a-\	.	8cc\	.	8fff\J	.
.	.	.	.	.	24gn/	.	24ggn\	.	.	.	.	.	.	.	.	.	.	.	.	.	.	.	.	.	.	.	.	.	.	.
.	.	.	.	.	24a-X/JJ)	.	24aa-X\JJ)	.	.	.	.	.	.	.	.	.	.	.	.	.	.	.	.	.	.	.	.	.	.	.
4r	.	.	4ryy	.	(24an/LL	.	(24aan\LL	.	4r	.	.	4r	.	4r	.	.	4r	.	.	.	.	.	4r	.	4r	.	4r	.	4r	.
.	.	.	.	.	24g#X/	.	24gg#X\	.	.	.	.	.	.	.	.	.	.	.	.	.	.	.	.	.	.	.	.	.	.	.
.	.	.	.	.	24a/JJ	.	24aa\JJ	.	.	.	.	.	.	.	.	.	.	.	.	.	.	.	.	.	.	.	.	.	.	.
.	.	.	.	.	24b-/LL	.	24bb-X\LL	.	.	.	.	.	.	.	.	.	.	.	.	.	.	.	.	.	.	.	.	.	.	.
.	.	.	.	.	24bn/	.	24bbn\	.	.	.	.	.	.	.	.	.	.	.	.	.	.	.	.	.	.	.	.	.	.	.
.	.	.	.	.	24cc/JJ)	.	24ccc\JJ)	[[	.	.	.	.	.	.	.	.	.	.	.	.	.	.	.	.	.	.	.	.	.	.
!	!	!	!LO:LB:g=original	!	!	!	!	!	!	!	!	!	!	!	!	!	!	!	!	!	!	!	!LO:LB:g=original	!	!	!	!	!	!LO:LB:g=original	!
=32	=32	=32	=32	=32	=32	=32	=32	=32	=32	=32	=32	=32	=32	=32	=32	=32	=32	=32	=32	=32	=32	=32	=32	=32	=32	=32	=32	=32	=32	=32
*Xtuplet	*	*	*	*	*	*	*	*	*	*	*	*	*	*	*	*	*	*	*	*	*	*	*	*	*	*	*	*	*	*
!	!	!	!	!	!	!LO:HP:b	!	!LO:HP:b	!	!	!	!	!	!	!	!	!	!	!	!	!	!	!	!LO:HP:a	!	!	!	!LO:HP:a	!	!
24En\LL	.	.	24en\LL	.	24dd-X\LL	>	24ddd-XLL 24een\	>	8.G\	pas-	.	8.g\	pas-	8.dd\	paſ-	.	8.een\	pas-	.	2ryy	2ryy	2ryy	16.En\LL	>	8.b-\	.	8.dd-X\	rf >	8.eeen\L	>
24G\	.	.	24g\	.	24gg\	.	24ddd- 24ee\	.	.	.	.	.	.	.	.	.	.	.	.	.	.	.	.	.	.	.	.	.	.	.
24B-\JJ	.	.	24b-\JJ	.	24gg\JJ	.	24ddd-JJ 24ee\	.	.	.	.	.	.	.	.	.	.	.	.	.	.	.	.	.	.	.	.	.	.	.
.	.	.	.	.	.	.	.	.	.	.	.	.	.	.	.	.	.	.	.	.	.	.	32G\K	.	.	.	.	.	.	.
*	*	*	*	*	*	*	*rep	*	*	*	*	*	*	*	*	*	*	*	*	*	*	*	*	*	*	*	*	*	*	*
24d-X\LL	.	.	24dd-X\LL	.	24gg\LL	.	24ddd-LL 24ee\	.	.	.	.	.	.	.	.	.	.	.	.	.	.	.	16.B-\	.	.	.	.	.	.	.
24B-\	.	.	24b-\	.	24gg\	.	24ddd- 24ee\	.	.	.	.	.	.	.	.	.	.	.	.	.	.	.	.	.	.	.	.	.	.	.
.	.	.	.	.	.	]	.	.	16G\	-ſus	.	16g\	-ſus	16dd\	-suſ	.	16ee\	-ſus	.	.	.	.	.	.	16b-\	.	16dd-\	.	16eee\Jk	.
24G\JJ	.	.	24g\JJ	.	24gg\JJ	.	24ddd-JJ 24ee\	.	.	.	.	.	.	.	.	.	.	.	.	.	.	.	.	]	.	.	.	.	.	.
.	.	.	.	.	.	.	.	]	.	.	.	.	.	.	.	.	.	.	.	.	.	.	32d-X\JJk	.	.	.	.	.	.	.
*	*	*	*	*	*rep	*	*Xrep	*	*	*	*	*	*	*	*	*	*	*	*	*	*	*	*	*	*	*	*	*	*	*
!	!	!	!	!	!	!LO:HP:b	!	!LO:HP:b	!	!	!	!	!	!	!	!	!	!	!	!	!	!	!	!	!	!	!	!	!	!
24En\LL	.	.	24en\LL	.	24gg\LL	<	24ddd-LL 24ee\	>	8G\	et	.	8g\	et	8dd\	et	.	8ee\	et	.	.	.	.	16.B-\LL	.	8b-\	.	8dd-\	.	8eee\L	.
24G\	.	.	24g\	.	24gg\	.	24ddd- 24ee\	.	.	.	.	.	.	.	.	.	.	.	.	.	.	.	.	.	.	.	.	.	.	.
24D-X\JJ	.	.	24d-X\JJ	.	24gg\JJ	.	24ddd-JJ 24ee\	.	.	.	.	.	.	.	.	.	.	.	.	.	.	.	.	.	.	.	.	.	.	.
!	!	!	!	!	!	!	!	!	!	!	!	!	!	!	!	!	!	!	!	!	!	!	!	!LO:HP:a	!	!	!	!	!	!
.	.	.	.	.	.	.	.	.	.	.	.	.	.	.	.	.	.	.	.	.	.	.	32G\K	>	.	.	.	.	.	.
*	*	*	*	*	*Xrep	*	*	*	*	*	*	*	*	*	*	*	*	*	*	*	*	*	*	*	*	*	*	*	*	*
*	*	*	*	*	*rep	*	*rep	*	*	*	*	*	*	*	*	*	*	*	*	*	*	*	*	*	*	*	*	*	*	*
24BB-/LL	.	.	24B-/LL	.	24gg\LL	.	24ddd-LL 24ee\	.	8G\	se-	.	8g\	se-	8dd\	se-	.	8ee\	se-	.	.	.	.	16.En\	.	8b-\	.	8dd-\	.	8eee\J	.
24GG/	.	.	24G/	.	24gg\	.	24ddd- 24ee\	.	.	.	.	.	.	.	.	.	.	.	.	.	.	.	.	.	.	.	.	.	.	.
24EE-/JJ	.	.	24E-/JJ	.	24gg\JJ	.	24ddd-JJ 24ee\	.	.	.	.	.	.	.	.	.	.	.	.	.	.	.	.	.	.	.	.	.	.	.
.	.	.	.	.	.	[	.	]	.	.	.	.	.	.	.	.	.	.	.	.	.	.	32G\JJk	]	.	.	.	]	.	.
*	*	*	*	*	*Xrep	*	*Xrep	*	*	*	*	*	*	*	*	*	*	*	*	*	*	*	*	*	*	*	*	*	*	*
!	!	!	!	!	!LO:LB:g=original	!	!	!	!	!	!	!LO:LB:g=original	!	!	!	!	!	!	!	!	!	!	!	!	!	!	!LO:LB:g=original	!	!	!
=33	=33	=33	=33	=33	=33	=33	=33	=33	=33	=33	=33	=33	=33	=33	=33	=33	=33	=33	=33	=33	=33	=33	=33	=33	=33	=33	=33	=33	=33	=33
!LO:TX:t=P:problem=mixed beam	!	!	!LO:TX:t=P:problem=mixed beam	!	!	!LO:HP:a	!	!	!	!	!	!	!	!	!	!	!	!	!	!	!	!	!	!	!	!	!	!	!	!
8FF/L	.	.	8F/L	.	16.ff\LL	>	16.ccc\LL	.	16.A-X\	-pul-	.	16.f\	-pul-	16.cc\	-pul-	.	16.ff\	-pul-	.	2ryy	2ryy	2ryy	(16.F\LL	.	16.a-X\LL	.	16.cc\LL	.	8.fff\L	]
.	.	.	.	.	32cc\JK	]	32aa-X\JJk	.	32A-\	-tus	.	32f\	-tus	32cc\	-tus	.	32ff\	-tus	.	.	.	.	32A-X\JK	.	32a-\JJk	.	32cc\JJk	.	.	.
8F\J	.	.	8f\J	.	8a-X\J	.	16ff\LL	.	8A-\	est	.	8f\	est	8cc\	est	.	8ff\	est	.	.	.	.	8c\J)	.	8a-\	.	8cc\	.	.	.
.	.	.	.	.	.	.	32r	.	.	.	.	.	.	.	.	.	.	.	.	.	.	.	.	.	.	ff	.	.	16fff\Jk	.
.	.	.	.	.	.	.	32cc\JJk	.	.	.	.	.	.	.	.	.	.	.	.	.	.	.	.	.	.	.	.	.	.	.
(16.C\LL	.	.	(16.c\LL	.	16.a-/LL	.	16.aa-X\LL	.	4r	.	.	4r	.	4r	.	.	4r	.	.	.	.	.	(16.C\LL	.	16.c/LL	.	16.cc\LL	.	8fff\	.
32F\K	.	.	32f\K	.	32f/K	.	32ff\K	.	.	.	.	.	.	.	.	.	.	.	.	.	.	.	32F\K	.	32f/K	.	32ff\K	.	.	.
16.A-X\	.	.	16.a-X\	.	16.c/	.	16.cc\	.	.	.	.	.	.	.	.	.	.	.	.	.	.	.	16.A-X\	.	16.a-X/	.	16.aa-X\	.	8r	.
!	!	!	!	!	!	!	!LO:TX:t=P:problem=mordent przekreślony	!	!	!	!	!	!	!	!	!	!	!	!	!	!	!	!	!	!	!	!	!	!LO:TX:t=P:problem=wykreślony takt	!
32en\JJk)	.	.	32een\JJk)	.	32b-JJk 32g/	.	32eenm\JJk	.	.	.	.	.	.	.	.	.	.	.	.	.	.	.	32en\JJk)	.	32f-X/JJk	.	32ff-X\JJk	.	.	.
!	!	!	!	!	!	!	!LO:LB:g=original	!	!	!	!	!	!	!	!	!	!	!	!	!	!	!	!	!	!LO:LB:g=original	!	!	!	!	!
=34	=34	=34	=34	=34	=34	=34	=34	=34	=34	=34	=34	=34	=34	=34	=34	=34	=34	=34	=34	=34	=34	=34	=34	=34	=34	=34	=34	=34	=34	=34
!	!	!	!	!	!	!	!	!	!	!	!	!	!	!	!	!	!LO:TX:a:t=4	!	!	!	!	!	!	!	!	!	!	!	!	!
16.f\LL	.	.	16.f\LL	.	(16.f/LL	.	(16.ff\LL	.	0r	.	.	0r	.	0r	.	.	0r	.	.	2ryy	2ryy	2ryy	(16.f\LL	.	16.f/LL	.	16.ffn\LL	.	16.fff\LL	.
32c\K	.	.	32cc\K	.	32c/K	.	32cc\K	.	.	.	.	.	.	.	.	.	.	.	.	.	.	.	32c\K	.	32c/K	.	32cc\K	.	32eee-\K	.
16.d-X\	.	.	16.dd-X\	.	16.d-X/	.	16.dd-X\	.	.	.	.	.	.	.	.	.	.	.	.	.	.	.	16.d-X\	.	16.d-X/	.	16.dd-X\	.	16.ddd-X\	.
32Bn\JJk	.	.	32bn\JJk	.	32Gn/JJk)	.	32bn\JJk)	.	.	.	.	.	.	.	.	.	.	.	.	.	.	.	32Bn\JJk)	.	32BX/JJk	.	32cc-X\JJk	.	32bbn\JJk	.
!	!	!	!	!	!	!	!	!	!	!	!	!	!	!	!	!	!	!	!	!	!	!	!	!	!	!	!LO:TX:t=P:problem=mixed beam	!	!	!
16.c\LL	.	.	16.cc\LL	.	16.c/LL	.	(16.cc/LL	.	.	.	.	.	.	.	.	.	.	.	.	.	.	.	(16.c\LL	.	16.c/LL	.	16.cc\LL	.	16.ccc\LL	.
32G\K	.	.	32g\K	.	32G/K	.	32g/K	.	.	.	.	.	.	.	.	.	.	.	.	.	.	.	32G\K	.	32G/K	.	32g\K	.	32gg\K	.
16.A-X\	.	.	16.a-X\	.	16.A-X/	.	16.a-X/)	.	.	.	.	.	.	.	.	.	.	.	.	.	.	.	16.A-X\	.	16.A-X/	.	16.a-X\	.	16.aa-X\	.
32B-X\JJk	.	.	32b-X\JJk	.	32d-X/JJk	.	32en/JJk	.	.	.	.	.	.	.	.	.	.	.	.	.	.	.	32B-X\JJk)	.	32G/JJk	.	32B-/JJk	.	32een\JJk	.
=35	=35	=35	=35	=35	=35	=35	=35	=35	=35	=35	=35	=35	=35	=35	=35	=35	=35	=35	=35	=35	=35	=35	=35	=35	=35	=35	=35	=35	=35	=35
!	!	!LO:DY:b	!	!LO:DY:b	!	!LO:DY:b:rj	!	!	!	!	!	!	!	!	!	!	!	!	!	!	!	!	!	!LO:DY:rj	!	!LO:DY:rj	!	!LO:DY:rj	!	!LO:DY:b:rj
8A\	.	pp	8a\	pp	8c/L	pp	8f/L	.	.	.	.	.	.	.	.	.	.	.	.	2ryy	2ryy	2ryy	8A-X\L	p	8F/L	pp	8A-X/L	pp	8ff\L	p
8r	.	.	8r	.	16.d-X/L	.	16.en/L	.	.	.	.	.	.	.	.	.	.	.	.	.	.	.	8B-\	.	16.G/L	.	16.B-/L	.	16.een\L	.
.	.	.	.	.	32d-/JJk	.	32e/JJk	.	.	.	.	.	.	.	.	.	.	.	.	.	.	.	.	.	32G/JJk	.	32B-/JJk	.	32ee\JJk	.
8A\	.	.	8a\	.	8c/L	.	8f/L	.	.	.	.	.	.	.	.	.	.	.	.	.	.	.	8A-\	.	8F/L	.	8A-/L	.	8ff\L	.
8r	.	.	8r	.	16.d-/L	.	16.en/L	.	.	.	.	.	.	.	.	.	.	.	.	.	.	.	8B-\J	.	16.G/L	.	16.B-/L	.	16.ee\L	.
.	.	.	.	.	32d-/JJk	.	32e/JJk	.	.	.	.	.	.	.	.	.	.	.	.	.	.	.	.	.	32G/JJk	.	32B-/JJk	.	32ee\JJk	.
=36	=36	=36	=36	=36	=36	=36	=36	=36	=36	=36	=36	=36	=36	=36	=36	=36	=36	=36	=36	=36	=36	=36	=36	=36	=36	=36	=36	=36	=36	=36
!	!	!	!	!	!	!	!	!	!	!	!	!	!	!	!	!	!	!	!	!	!	!	!LO:N:vis=4	!	!	!	!	!	!	!
!LO:N:vis=4	!	!LO:DY:b	!LO:N:vis=4	!	!	!	!	!	!	!	!	!	!	!	!	!	!	!	!	!	!	!	!LO:SIC:v:s=8A-\	!	!	!	!	!	!	!
8A\	.	ppp	8a\	.	8c/	.	8f/	.	.	.	.	.	.	.	.	.	.	.	.	2ryy	2ryy	2ryy	8A\	.	8F/	.	8A-X/	.	8ff\	.
8r	.	.	8r	.	8r	.	8r	.	.	.	.	.	.	.	.	.	.	.	.	.	.	.	8r	.	8r	ppp	8r	.	8r	.
!	!	!	!	!	!	!	!	!LO:DY:b:rj	!	!	!	!	!	!	!	!	!	!	!	!	!	!	!	!	!	!	!	!LO:DY:rj	!	!
8A\L	.	.	8a\L	.	8c/L	.	8f/L	pp	.	.	.	.	.	.	.	.	.	.	.	.	.	.	(8c\L	.	8F/L	.	8A-/L	ppp	8ff\L	.
8A\J	.	.	8a\J	.	8c/J	.	8f/J	.	.	.	.	.	.	.	.	.	.	.	.	.	.	.	8A\J)	.	8F/J	.	8A-/J	.	8ff\J	.
=37	=37	=37	=37	=37	=37	=37	=37	=37	=37	=37	=37	=37	=37	=37	=37	=37	=37	=37	=37	=37	=37	=37	=37	=37	=37	=37	=37	=37	=37	=37
4F\	.	.	4f\	.	4c/	.	4f/	.	.	.	.	.	.	.	.	.	.	.	.	2ryy	2ryy	2ryy	4F\	.	4F/	.	4A-X/	.	4ff\	.
!	!	!	!	!	!LO:TX:b:i:t=Verte Cito Etresurrexit	!	!	!	!	!	!	!	!	!	!	!	!	!	!	!	!	!	!	!	!	!	!	!	!	!
4r	.	.	4r	.	4r	.	4r	.	.	.	.	.	.	.	.	.	.	.	.	.	.	.	4r	.	4r	.	4r	.	4r	.
==	==	==	==	==	==	==	==	==	==	==	==	==	==	==	==	==	==	==	==	==	==	==	==	==	==	==	==	==	==	==
*-	*-	*-	*-	*-	*-	*-	*-	*-	*-	*-	*-	*-	*-	*-	*-	*-	*-	*-	*-	*-	*-	*-	*-	*-	*-	*-	*-	*-	*-	*-
!!!system-decoration: [(g1)][(g2)]<s7>[(g3)][(g4)]s15
!!!RDF**kern: > = above
!!!ENC: Andrzej Gręziak
!!!END: 2020-08-01
!!!ENC: Marta Lawrence
!!!END: 2022-02-21
